!!!OTL: Quartett in G für 2 Violinen, Viola und Violoncello, 1. Satz, KV 387/01
!!!system-decoration: [(s1,s2,s3,s4)]
**kern	**kern	**kern	**kern	**dynam	**kern	**kern	**kern	**kern	**dynam	**kern	**kern	**kern	**kern	**dynam	**kern	**kern	**kern	**kern	**dynam
*part4	*part4	*part4	*part4	*part4	*part3	*part3	*part3	*part3	*part3	*part2	*part2	*part2	*part2	*part2	*part1	*part1	*part1	*part1	*part1
*staff16	*staff15	*staff14	*staff13	*	*staff12	*staff11	*staff10	*staff9	*	*staff8	*staff7	*staff6	*staff5	*	*staff4	*staff3	*staff2	*staff1	*
*I"Violoncello	*	*	*	*	*I"Viola	*	*	*	*	*I"Violino II	*	*	*	*	*I"Violino I	*	*	*	*
*clefF4	*	*clefC3	*	*clefG2	*	*clefG2	*
*k[f#]	*	*k[f#]	*	*k[f#]	*	*k[f#]	*
*M4/4	*	*M4/4	*	*M4/4	*	*M4/4	*
8r	.	8r	.	8r	.	8g	.
=1	=1	=1	=1	=1	=1	=1	=1
4G	.	4g	.	4b	.	(4dd	.
4B	.	4d	.	4g	.	4gg)	.
(4.A	.	(4.c	.	(4.cc	.	(4gg	.
.	.	.	.	.	.	8ff#yL)	.
8G)	.	8e)	.	8b)	.	8eeJ	.
=2	=2	=2	=2	=2	=2	=2	=2
(4F#y	.	(4A	.	(4a	.	(8ddL	.
.	.	.	.	.	.	8dd#	.
4G#)	.	4e)	.	4b)	.	8ee	.
.	.	.	.	.	.	8bJ)	.
[4A	.	(8eL_	.	(4b	.	(4ddn	.
.	.	8g#J	.	.	.	.	.
8A]	.	8a)	.	8a)	.	8cc)	.
8r	.	8r	.	8r	.	8r	.
=3	=3	=3	=3	=3	=3	=3	=3
4AA	.	(4A	.	2e	.	(8.ccLT	.
.	.	.	.	.	.	32dd	.
.	.	.	.	.	.	32eeJ)	.
4C	.	8EL	.	.	.	(16ddL	.
.	.	.	.	.	.	16cc	.
.	.	8cJ)	.	.	.	16b	.
.	.	.	.	.	.	16aJ)	.
(4.D	.	(4B	.	(4.d	.	(4g	.
.	.	8AL	.	.	.	8f#yL	.
8E)	.	8GJ)	.	8c#)	.	8eJ)	.
=4	=4	=4	=4	=4	=4	=4	=4
2F#y	.	2A	.	[2d	.	8dL	.
.	.	.	.	.	.	(8dd	.
.	.	.	.	.	.	8cc#	.
.	.	.	.	.	.	8ccnJ)	.
[4G	.	(4c	.	(8dL_	.	(4a#	.
.	.	.	.	8f#yJ	.	.	.
8G]	.	8B)	.	8g)	.	8b)	.
8r	.	8r	.	8r	.	8r	.
=5	=5	=5	=5	=5	=5	=5	=5
2r	.	4an	.	1r	.	2r	.
.	.	(<16qdd	.	.	.	.	.
.	.	8ccL)	.	.	.	.	.
.	.	16b	.	.	.	.	.
.	.	16aJ	.	.	.	.	.
(4C	.	(4f#y	.	.	.	[4d (4A	.
8BB)	.	8g)	.	.	.	8d] 8B)	.
8r	.	8r	.	.	.	8r	.
!!LO:LB
=6	=6	=6	=6	=6	=6	=6	=6
2r	.	2r	.	4a	.	1r	.
.	.	.	.	(<16qdd	.	.	.
.	.	.	.	8ccL)	.	.	.
.	.	.	.	16b	.	.	.
.	.	.	.	16aJ	.	.	.
(4c	.	(4a [4d	.	(4ff#y	.	.	.
8B)	.	8b) 8d]	.	8gg)	.	.	.
8r	.	8r	.	8r	.	.	.
=7	=7	=7	=7	=7	=7	=7	=7
2r	.	2r	.	2r	.	4aa	.
.	.	.	.	.	.	(<16qddd	.
.	.	.	.	.	.	8cccL)	.
.	.	.	.	.	.	16bb	.
.	.	.	.	.	.	16aaJ	.
2C#	.	2A	.	[2g	.	(4ddd#	.
.	.	.	.	.	.	4eee)	.
=8	=8	=8	=8	=8	=8	=8	=8
(4D	cresc.	(4B	cresc.	(4g_	cresc.	(4.gg	cresc.
4D#	.	4c	.	4f#y	.	.	.
.	.	.	.	.	.	16bbL	.
.	.	.	.	.	.	16aaJ	.
4E)	.	4B)	.	4g)	.	4gg)	.
4r	.	4r	.	4r	.	4r	.
=9	=9	=9	=9	=9	=9	=9	=9
2r	.	2r	.	2r	.	(16g#L	.
.	.	.	.	.	.	16a	.
.	.	.	.	.	.	16cc	.
.	.	.	.	.	.	16bJ	.
.	.	.	.	.	.	16ddL	.
.	.	.	.	.	.	16cc	.
.	.	.	.	.	.	16b	.
.	.	.	.	.	.	16aJ)	.
(2C#	.	(2B-	.	2g	.	(8dd#L	.
.	.	.	.	.	.	8ee	.
.	.	.	.	.	.	8ff#y	.
.	.	.	.	.	.	8ggnJ)	.
=10	=10	=10	=10	=10	=10	=10	=10
4D)	cresc.	(4Bn)	cresc.	(4d	cresc.	(4.g	cresc.
4DD	.	4F#y	.	4c	.	.	.
.	.	.	.	.	.	16bL	.
.	.	.	.	.	.	16aJ	.
4GG	.	4G)	.	4B)	.	4g)	.
4r	.	4r	.	8r	.	4r	.
.	.	.	.	8G	.	.	.
=11	=11	=11	=11	=11	=11	=11	=11
4GG	.	4B	.	(4d	.	2r	.
4BB	.	4d	.	4g)	.	.	.
(4.AA	.	(4.c	.	(4g	.	4r	.
.	.	.	.	8f#yL)	.	8r	.
8GG)	.	8B)	.	8eJ	.	8g	.
!!LO:LB
=12	=12	=12	=12	=12	=12	=12	=12
(4FF#y	.	(4A	.	(8dL	.	(4dd	.
.	.	.	.	8d#	.	.	.
8GGL)	.	4B)	.	8e	.	4gg)	.
8GJ	.	.	.	8BJ)	.	.	.
(4B	.	4r	.	(4dn	.	(4gg	.
8AL)	.	[4d	.	8cL	.	8ff#yL)	.
8GJ	.	.	.	8BJ)	.	8eeJ	.
=13	=13	=13	=13	=13	=13	=13	=13
(4F#y	.	8dL_	.	4A	.	(8ddL	.
.	.	(8a	.	.	.	8dd#	.
4G#)	.	8b	.	4r	.	8ee	.
.	.	8g#J)	.	.	.	8bJ)	.
2A	.	4e	.	8r	.	(4dd	.
.	.	.	.	(8g#LT	.	.	.
.	.	[4A	.	8a	.	8cc#)	.
.	.	.	.	8eJ)	.	8r	.
=14	=14	=14	=14	=14	=14	=14	=14
2D	.	4A]	.	(4gn	.	8r	.
.	.	.	.	.	.	(8ccnLT	.
.	.	2d	.	8f#y)	.	8dd	.
.	.	.	.	8r	.	8aJ)	.
2G	.	.	.	8r	.	(4a#	.
.	.	.	.	(8f#yLT	.	.	.
.	.	[4B	.	8g	.	8b)	.
.	.	.	.	8d#J)	.	8r	.
=15	=15	=15	=15	=15	=15	=15	=15
8r	.	8BL]	.	(8f#yL	.	8r	.
(8EL	.	(8b	.	8eJ)	.	(8ggL	.
8F#y	.	8a	.	8r	.	8ff#y	.
8GJ)	.	8gJ)	.	8b	.	8eeJ)	.
8AL	.	(4f#y	.	(4.a	.	(4dd	.
8AA	.	.	.	.	.	.	.
(8A	.	8eL	.	.	.	8cc#L	.
8BJ)	.	8dJ)	.	8g#)	.	8bJ)	.
=16	=16	=16	=16	=16	=16	=16	=16
4c#	.	4e	.	4a	.	8aL	.
.	.	.	.	.	.	(8aa	.
4r	.	4r	.	4r	.	8gg#	.
.	.	.	.	.	.	8ggnJ	.
4d	.	4f#y	.	4a	.	8ff#yL	.
.	.	.	.	.	.	8ddd	.
4r	.	4r	.	4r	.	8ccc#	.
.	.	.	.	.	.	8cccnJ)	.
!!LO:LB
=17	=17	=17	=17	=17	=17	=17	=17
1r	.	2r	.	8r	.	[1bb	.
.	.	.	.	(8BL	.	.	.
.	.	.	.	8cn	.	.	.
.	.	.	.	8c#J	.	.	.
.	.	8r	.	8dL	.	.	.
.	.	(8BL	.	8d#	.	.	.
.	.	8cn	.	8e	.	.	.
.	.	8c#J	.	8e#J	.	.	.
=18	=18	=18	=18	=18	=18	=18	=18
8r	.	8dL	.	8f#yL)	.	1bb_	.
(8BBL	.	8d#J	.	(8b	.	.	.
8Cn	.	4e)	.	8a	.	.	.
8C#J	.	.	.	8gJ	.	.	.
8DL	.	(8dnL	.	8f#yL	.	.	.
8D#	.	8a	.	8cc	.	.	.
8E	.	8g	.	8b	.	.	.
8F#yJ)	.	8f#yJ)	.	8aJ)	.	.	.
=19	=19	=19	=19	=19	=19	=19	=19
4G	.	4e	.	4g	.	8bb]	.
.	.	.	.	.	.	(8bbL	.
4r	.	4r	.	4r	.	8aa#	.
.	.	.	.	.	.	8aanJ	.
2r	.	2r	.	8r	.	8gg#L	.
.	.	.	.	(8bL	.	8ggn	.
.	.	.	.	8a	.	8ff#y	.
.	.	.	.	8gJ)	.	8eeJ)	.
=20	=20	=20	=20	=20	=20	=20	=20
8r	cresc.	8r	cresc.	(8f#yL	cresc.	(8dd#L	cresc.
(8GL	.	(8BL	.	8g	.	8ee	.
8F#y	.	8A	.	8a	.	8ff#y	.
8EJ)	.	8GJ)	.	8bJ)	.	8ggJ)	.
8AAL	.	4A	.	(4f#y	.	(4ddn	.
8AJ	.	.	.	.	.	.	.
[4B-	.	8r	.	8eL)	.	8cc#)	.
.	.	8E	.	8GJ	.	8r	.
=21	=21	=21	=21	=21	=21	=21	=21
4B-y]	.	2e	.	2g	.	8r	.
.	.	.	.	.	.	(16ggL	.
.	.	.	.	.	.	16ff#yJ	.
4r	.	.	.	.	.	16aaL	.
.	.	.	.	.	.	16gg	.
.	.	.	.	.	.	16ffn	.
.	.	.	.	.	.	16eeJ)	.
8r	.	4r	.	4r	.	(4dd	.
8A	.	.	.	.	.	.	.
[4B-	.	8r	.	8r	.	8cc#)	.
.	.	8E	.	8G	.	8r	.
=22	=22	=22	=22	=22	=22	=22	=22
4B-y]	.	[2e	.	[2g	.	8r	.
.	.	.	.	.	.	(16ggL	.
.	.	.	.	.	.	16ff#J	.
4r	.	.	.	.	.	16aaL	.
.	.	.	.	.	.	16gg	.
.	.	.	.	.	.	16ffn	.
.	.	.	.	.	.	16eeJ)	.
8r	.	8e]	.	8g]	.	(16ddL	.
.	.	.	.	.	.	16cc#	.
(8B-	.	(4c#	.	(4e	.	16gg	.
.	.	.	.	.	.	16ff#J	.
4A)	.	.	.	.	.	16aaL	.
.	.	.	.	.	.	16gg	.
.	.	8d)	.	8fn)	.	16ffn	.
.	.	.	.	.	.	16eeJ)	.
=23	=23	=23	=23	=23	=23	=23	=23
8AL]	.	8e	.	8g	.	(16ddL	.
.	.	.	.	.	.	16cc#	.
(8B-J	.	(4c#	.	(4e	.	16gg	.
.	.	.	.	.	.	16ff#J	.
4.A)	.	.	.	.	.	16aaL	.
.	.	.	.	.	.	16gg	.
.	.	8d)	.	8fn)	.	16ffn	.
.	.	.	.	.	.	16eeJ)	.
.	.	[2e	.	[2g	.	[2dd	.
8AAL	.	.	.	.	.	.	.
8A	.	.	.	.	.	.	.
8AJ	.	.	.	.	.	.	.
=24	=24	=24	=24	=24	=24	=24	=24
4A	.	4e_	.	4g_	.	4dd]	.
4r	.	16eL_	.	16gL_	.	16cc#'L	.
.	.	16d'	.	16f#'	.	16dd'	.
.	.	16c#'	.	16e'	.	16ee'	.
.	.	16B'J	.	16d'J	.	16ff#'J	.
2r	.	4A	.	4c#	.	4gg	.
.	.	4r	.	8r	.	4r	.
.	.	.	.	(8A	.	.	.
=25	=25	=25	=25	=25	=25	=25	=25
4D	.	4A	.	4f#)	.	1r	.
4D	.	4A	.	4f#y	.	.	.
2D	.	2A	.	16f#y'L	.	.	.
.	.	.	.	16e#'	.	.	.
.	.	.	.	16f#y'	.	.	.
.	.	.	.	16e#y'J	.	.	.
.	.	.	.	8f#yL	.	.	.
.	.	.	.	(8f#yJ	.	.	.
!!LO:LB
=26	=26	=26	=26	=26	=26	=26	=26
8r	.	8r	.	4.a)	.	1r	.
(8DD	.	8F#yL	.	.	.	.	.
4.D)	.	(8f#y	.	.	.	.	.
.	.	8AJ)	.	(8f#y	.	.	.
.	.	8r	.	4.a)	.	.	.
(8DD	.	8F#yL	.	.	.	.	.
4D)	.	(8f#y	.	.	.	.	.
.	.	8AJ)	.	(8f#y	.	.	.
=27	=27	=27	=27	=27	=27	=27	=27
4GG	.	4B	.	4en)	.	1r	.
4GG	.	4B	.	4e	.	.	.
2GG	.	2B	.	16e'L	.	.	.
.	.	.	.	16d#'	.	.	.
.	.	.	.	16e'	.	.	.
.	.	.	.	16d#y'J	.	.	.
.	.	.	.	8eL	.	.	.
.	.	.	.	(8eJ	.	.	.
=28	=28	=28	=28	=28	=28	=28	=28
8r	.	8r	.	4.g)	.	1r	.
(8GG	.	8EL	.	.	.	.	.
4.G)	.	(8B	.	.	.	.	.
.	.	8GJ)	.	(8e	.	.	.
.	.	8r	.	4.g)	.	.	.
(8GG	.	8EL	.	.	.	.	.
4G)	.	(8e	.	.	.	.	.
.	.	8c#J)	.	(8e	.	.	.
=29	=29	=29	=29	=29	=29	=29	=29
(2F#y	.	8r	.	(4dn)	.	1r	.
.	.	(4A'	.	.	.	.	.
.	.	.	.	4d#	.	.	.
.	.	4A'	.	.	.	.	.
2C#)	.	.	.	4e	.	.	.
.	.	4A'	.	.	.	.	.
.	.	.	.	4e#)	.	.	.
.	.	8A)	.	.	.	.	.
=30	=30	=30	=30	=30	=30	=30	=30
(4D	.	(8AL_	.	4f#y	.	2r	.
.	.	8dJ)	.	.	.	.	.
4GG)	.	(16eL	.	(16gL	.	.	.
.	.	16f#y	.	16a	.	.	.
.	.	16g	.	16b	.	.	.
.	.	16eJ)	.	16gJ)	.	.	.
(16AAL	.	(4d	.	(4f#y	.	4r	.
16GG#	.	.	.	.	.	.	.
16AA	.	.	.	.	.	.	.
16GG#yJ	.	.	.	.	.	.	.
8AA)	.	8c#)	.	8e)	.	8r	.
8r	.	8r	.	8r	.	(8a	.
!!LO:LB
=31	=31	=31	=31	=31	=31	=31	=31
8r	.	4d	.	4a	.	4ff#y)	.
8D	.	.	.	.	.	.	.
8r	.	4d	.	4a	.	4ff#y	.
8D	.	.	.	.	.	.	.
8r	.	16d'L	.	2a	.	16ff#y'L	.
.	.	16c#'	.	.	.	16ee#'	.
8DL	.	16d'	.	.	.	16ff#y'	.
.	.	16c#y'J	.	.	.	16ee#y'J	.
8DJ	.	8dL	.	.	.	8ff#yL	.
8r	.	(8dJ	.	.	.	(8ff#yJ	.
=32	=32	=32	=32	=32	=32	=32	=32
8r	.	4.f#y)	.	8r	.	4.aa)	.
(8DD	.	.	.	(8a	.	.	.
4.D)	.	.	.	4.dd)	.	.	.
.	.	(8d	.	.	.	(8ff#y	.
.	.	4.f#y)	.	.	.	4.aa)	.
(8DD	.	.	.	(8a	.	.	.
4D)	.	.	.	4dd)	.	.	.
.	.	(8d	.	.	.	(8ff#y	.
=33	=33	=33	=33	=33	=33	=33	=33
8r	.	4c#)	.	4a	.	4een)	.
8G	.	.	.	.	.	.	.
8r	.	4c#y	.	4a	.	4ee	.
8G	.	.	.	.	.	.	.
8r	.	16c#y'L	.	2a	.	16ee'L	.
.	.	16B#'	.	.	.	16dd#'	.
8GL	.	16c#y'	.	.	.	16ee'	.
.	.	16B#y'J	.	.	.	16dd#y'J	.
8GJ	.	8c#yL	.	.	.	8eeL	.
8r	.	(8c#yJ	.	.	.	(8eeJ	.
=34	=34	=34	=34	=34	=34	=34	=34
8r	.	4.e)	.	8r	.	4.gg)	.
(8GG	.	.	.	(8A	.	.	.
4.G)	.	.	.	4.a)	.	.	.
.	.	(8c#	.	.	.	(8ee	.
.	.	4.e)	.	.	.	4.gg)	.
(8GG	.	.	.	(8A	.	.	.
4G)	.	.	.	4a)	.	.	.
.	.	(8c#y	.	.	.	(8ee	.
=35	=35	=35	=35	=35	=35	=35	=35
(2F#y	.	(4d)	.	(4a_	.	(4dd)	.
.	.	4a	.	4ccn	.	4dd#	.
4G	.	4g	.	4b	.	4ee	.
4G#)	.	4b)	.	4dd)	.	4ffn)	.
!!LO:LB
=36	=36	=36	=36	=36	=36	=36	=36
*	*	*^	*	*	*	*	*
(2A	.	2a	(4a	.	4dd]	.	4ff#	.
.	.	.	.	.	(<16qff#y	.	.	.
.	.	.	.	.	.	.	(<16qaa	.
.	.	.	4g)	.	8eeL)	.	8ggL)	.
.	.	.	.	.	16dd	.	16ff#y	.
.	.	.	.	.	16cc#J	.	16eeJ	.
4d)	.	4a	4f#y	.	4dd	.	16ddL	.
.	.	.	.	.	.	.	16ee	.
.	.	.	.	.	.	.	16ff#y	.
.	.	.	.	.	.	.	16ggJ	.
4r	.	4r	4ryy	.	4r	.	16aaL	.
.	.	.	.	.	.	.	16bb	.
.	.	.	.	.	.	.	16ccc#	.
.	.	.	.	.	.	.	16dddJ	.
*	*	*v	*v	*	*	*	*	*
=37	=37	=37	=37	=37	=37	=37	=37
(4BB	.	2F#y	.	(4d	.	(4d	.
4AA	.	.	.	4d#	.	4ccn	.
4GG	.	(4G	.	4e	.	4b	.
4GG#)	.	4d)	.	4fn)	.	4bb)	.
=38	=38	=38	=38	=38	=38	=38	=38
(2AA	.	(4d_	.	4f#	.	(4a	.
.	.	.	.	(<16qa	.	.	.
.	.	8eL)	.	8gL)	.	4ccc#	.
.	.	8GJ	.	16f#y	.	.	.
.	.	.	.	16eJ	.	.	.
8DD)	.	8F#y	.	8d	.	8ddd)	.
8r	.	8r	.	8r	.	8r	.
4r	.	4r	.	4r	.	(16dddL	.
.	.	.	.	.	.	16ccc#y)	.
.	.	.	.	.	.	16bb'	.
.	.	.	.	.	.	16aa'J	.
=39	=39	=39	=39	=39	=39	=39	=39
8c#L	.	8eL	.	8aL	.	(16gg#L	.
.	.	.	.	.	.	16aa	.
8c#yJ	.	8eJ	.	8aJ	.	16gg#y	.
.	.	.	.	.	.	16aaJ	.
8c#y	.	8e	.	8a	.	16gg#yL	.
.	.	.	.	.	.	16aa	.
8r	.	8r	.	8r	.	16bb	.
.	.	.	.	.	.	16ggnJ)	.
8dL	.	8f#yL	.	8aL	.	(16ee#L	.
.	.	.	.	.	.	16ff#y	.
8dJ	.	8f#yJ	.	8aJ	.	16ee#y	.
.	.	.	.	.	.	16ff#yJ	.
8d	.	8f#y	.	8a	.	16ee#yL	.
.	.	.	.	.	.	16ff#y	.
8r	.	8r	.	8r	.	16aa	.
.	.	.	.	.	.	16ff#yJ)	.
=40	=40	=40	=40	=40	=40	=40	=40
8G	.	8r	.	8r	.	(16dd#L	.
.	.	.	.	.	.	16een	.
8r	.	8g	.	8b	.	16dd#y	.
.	.	.	.	.	.	16eeJ	.
8E	.	8r	.	8r	.	16dd#yL	.
.	.	.	.	.	.	16ee	.
8r	.	8g	.	8b	.	16gg	.
.	.	.	.	.	.	16eeJ)	.
4A	.	4a	.	4e	.	(16ddnL	.
.	.	.	.	.	.	16cc#	.
.	.	.	.	.	.	16b	.
.	.	.	.	.	.	16aJ)	.
4r	.	4r	.	(16ddL	.	(16dddL	.
.	.	.	.	16cc#)	.	16ccc#)	.
.	.	.	.	16b'	.	16bb'	.
.	.	.	.	16a'J	.	16aa'J	.
=41	=41	=41	=41	=41	=41	=41	=41
8C#L	.	8eL 8A	.	(16g#L	.	(16gg#L	.
.	.	.	.	16a	.	16aa	.
8C#yJ	.	8eJ 8A	.	16g#y	.	16gg#y	.
.	.	.	.	16aJ	.	16aaJ	.
8C#y	.	8e 8A	.	16g#yL	.	16gg#yL	.
.	.	.	.	16a	.	16aa	.
8r	.	8r	.	16b	.	16bb	.
.	.	.	.	16gnJ)	.	16ggnJ)	.
8DL	.	8dL 8A	.	(16e#L	.	(16ee#L	.
.	.	.	.	16f#y	.	16ff#y	.
8DJ	.	8dJ 8A	.	16e#y	.	16ee#y	.
.	.	.	.	16f#yJ	.	16ff#yJ	.
8D	.	8d 8A	.	16e#yL	.	16ee#yL	.
.	.	.	.	16f#y	.	16ff#y	.
8r	.	8r	.	16a	.	16aa	.
.	.	.	.	16f#yJ)	.	16ff#yJ)	.
=42	=42	=42	=42	=42	=42	=42	=42
8GG	.	8r	.	(16d#L	.	(16dd#L	.
.	.	.	.	16e	.	16ee	.
8r	.	8B 8G	.	16g	.	16gg	.
.	.	.	.	16eJ)	.	16eeJ)	.
8AA	.	8r	.	(16eL	.	(16eeL	.
.	.	.	.	16dn)	.	16ddn)	.
8r	.	8A 8G	.	(16d	.	(16dd	.
.	.	.	.	16c#J)	.	16cc#J)	.
(16DL	.	2A 2F#y	.	2d	.	(2dd	.
16E	.	.	.	.	.	.	.
16F#y	.	.	.	.	.	.	.
16GJ	.	.	.	.	.	.	.
16AL	.	.	.	.	.	.	.
16B	.	.	.	.	.	.	.
16c#	.	.	.	.	.	.	.
16dJ)	.	.	.	.	.	.	.
!!LO:LB
=43	=43	=43	=43	=43	=43	=43	=43
*	*	*^	*	*	*	*	*
(16cnL	cresc.	(2a	1d	cresc.	1dd	cresc.	2ff#y	cresc.
16B	.	.	.	.	.	.	.	.
16A	.	.	.	.	.	.	.	.
16GJ	.	.	.	.	.	.	.	.
16F#yL	.	.	.	.	.	.	.	.
16E	.	.	.	.	.	.	.	.
16D	.	.	.	.	.	.	.	.
16CJ)	.	.	.	.	.	.	.	.
(16BBL	.	2b)	.	.	.	.	2gg)	.
16C	.	.	.	.	.	.	.	.
16D	.	.	.	.	.	.	.	.
16EJ	.	.	.	.	.	.	.	.
16F#yL	.	.	.	.	.	.	.	.
16G	.	.	.	.	.	.	.	.
16A	.	.	.	.	.	.	.	.
16BJ)	.	.	.	.	.	.	.	.
*	*	*v	*v	*	*	*	*	*
=44	=44	=44	=44	=44	=44	=44	=44
8AL	.	8aL	.	8.ddL	.	8.ff#yL	.
8A	.	8a	.	.	.	.	.
.	.	.	.	16ff#yJ	.	16aaJ	.
.	.	.	.	(<16qff#y	.	.	.
.	.	.	.	.	.	(<16qaa	.
8A	.	8a	.	8eeL)	.	8ggL)	.
8AJ	.	8gJ 8A	.	16dd	.	16ff#y	.
.	.	.	.	16cc#J	.	16eeJ	.
(16DL	.	2f#y 2A	.	(2dd	.	(2dd	.
16E	.	.	.	.	.	.	.
16F#y	.	.	.	.	.	.	.
16GJ	.	.	.	.	.	.	.
16AL	.	.	.	.	.	.	.
16B	.	.	.	.	.	.	.
16c#	.	.	.	.	.	.	.
16dJ)	.	.	.	.	.	.	.
=45	=45	=45	=45	=45	=45	=45	=45
(16cnL	cre	[2d	cre	(2a)	cre	(2ff#y)	cre
16B	.	.	.	.	.	.	.
16A	.	.	.	.	.	.	.
16GJ	.	.	.	.	.	.	.
16F#yL	.	.	.	.	.	.	.
16E	.	.	.	.	.	.	.
16D	.	.	.	.	.	.	.
16CJ)	.	.	.	.	.	.	.
(16BBL	.	(16dL_	.	2b)	.	2gg	.
16C	.	16e	.	.	.	.	.
16D	.	16f#y	.	.	.	.	.
16EJ	.	16gJ	.	.	.	.	.
16F#yL	.	16aL	.	.	.	.	.
16G	.	16b	.	.	.	.	.
16A	.	16cc	.	.	.	.	.
16BJ)	.	16ddJ)	.	.	.	.	.
!!LO:LB
=46	=46	=46	=46	=46	=46	=46	=46
(16AL	do	(16ccL	do	(2ff#y	scendo	2aa	scendo
16G	.	16b	.	.	.	.	.
16F#y	.	16a	.	.	.	.	.
16EJ	.	16gJ	.	.	.	.	.
16DL	.	16f#yL	.	.	.	.	.
16C	.	16e	.	.	.	.	.
16BB	.	16d	.	.	.	.	.
16AAJ)	.	16cJ)	.	.	.	.	.
(16GGL	.	(16BL	.	2gg)	.	2bb)	.
16AA	.	16c	.	.	.	.	.
16BB	.	16d	.	.	.	.	.
16CJ	.	16eJ	.	.	.	.	.
16DL	.	16f#yL	.	.	.	.	.
16E	.	16g	.	.	.	.	.
16F#y	.	16a	.	.	.	.	.
16GJ)	.	16bJ)	.	.	.	.	.
=47	=47	=47	=47	=47	=47	=47	=47
(2AA	.	(16eL	.	(16gL	.	(16cc#L	.
.	.	16f#y	.	16a	.	16dd	.
.	.	16g	.	16b	.	16ee	.
.	.	16aJ	.	16cc#J	.	16ff#yJ	.
.	.	16bL	.	16ddL	.	16ggL	.
.	.	16cc#	.	16ee	.	16aa	.
.	.	16dd	.	16ff#y	.	16bb	.
.	.	16eeJ)	.	16ggJ)	.	16ccc#J)	.
8BB)	.	8dd	.	8ff#y	.	8ddd	.
8r	.	8r	.	8r	.	8r	.
8G	.	8dd	.	8gg	.	8bb	.
8r	.	8r	.	8r	.	8r	.
=48	=48	=48	=48	=48	=48	=48	=48
8A	.	8dd	.	8ff#y	.	8aa	.
8r	.	8r	.	8r	.	8r	.
8A#	.	8cc#	.	8ee	.	8gg	.
8r	.	8r	.	8r	.	8r	.
8B	.	8b	.	8dd	.	(16ggL	.
.	.	.	.	.	.	16ff#yJ)	.
8r	.	8r	.	8r	.	8r	.
8G	.	8g	.	8b	.	(16ff#yL	.
.	.	.	.	.	.	16eeJ)	.
8r	.	8r	.	8r	.	8r	.
=49	=49	=49	=49	=49	=49	=49	=49
8A	.	8f#y	.	8a	.	(16eeL	.
.	.	.	.	.	.	16ddJ)	.
8r	.	8r	.	8r	.	8r	.
8AA	.	8e	.	8g	.	(16ddL	.
.	.	.	.	.	.	16cc#J)	.
8r	.	8r	.	8r	.	8r	.
8D	.	8d	.	8f#y	.	8dd	.
8r	.	8r	.	8r	.	8r	.
[4B	.	[4d	.	[4fn	.	[4gg#	.
!!LO:LB
=50	=50	=50	=50	=50	=50	=50	=50
4B_	.	4d_	.	4f_	.	4gg#y_	.
.	.	.	.	.	.	(<16qbb	.
2A	.	4.d	.	4.f#	.	4.aa)	.
.	.	8d'L	.	8f#y'L	.	16ggnL	.
.	.	.	.	.	.	16ff#yJ	.
.	.	.	.	.	.	(<16qff#y	.
4AA	.	8e'	.	8g'	.	8eeL)	.
.	.	8e'J	.	8g'J	.	16dd	.
.	.	.	.	.	.	16cc#J	.
=51	=51	=51	=51	=51	=51	=51	=51
8D	.	8d'	.	8f#y'	.	8dd	.
8r	.	8r	.	8r	.	8r	.
2B	.	2d	.	2fn	.	2gg#	.
.	.	.	.	.	.	(<16qbb	.
[4A	.	[4d	.	[4f#	.	4aa)	.
=52	=52	=52	=52	=52	=52	=52	=52
4A]	.	8dL]	.	8f#yL]	.	8aaL]	.
.	.	8d'	.	8f#y'	.	16ggn	.
.	.	.	.	.	.	16ff#yJ	.
.	.	.	.	.	.	(<16qff#y	.
4AA	.	8e'	.	8g'	.	8eeL)	.
.	.	8e'J	.	8g'J	.	16dd	.
.	.	.	.	.	.	16cc#J	.
8D	.	8d'	.	8f#y'	.	8dd	.
8r	.	8r	.	8r	.	8r	.
4r	.	8A'L	.	8g'L	.	(16eeL	.
.	.	.	.	.	.	16gg	.
.	.	8A'J	.	8g'J	.	16ff#y	.
.	.	.	.	.	.	16eeJ)	.
=53	=53	=53	=53	=53	=53	=53	=53
4r	.	8d	.	8f#y	.	8dd	.
.	.	8r	.	8r	.	8r	.
8A'L	.	8g'L	.	(16eeL	.	8ccc#'L	.
.	.	.	.	16gg	.	.	.
8A'J	.	8g'J	.	16ff#y	.	8ccc#y'J	.
.	.	.	.	16eeJ)	.	.	.
8d	.	8f#y	.	8dd	.	8ddd	.
8r	.	8r	.	8r	.	8r	.
4r	.	4r	.	4r	.	4r	.
=54	=54	=54	=54	=54	=54	=54	=54
8.GGL	.	8.BL	.	8.dL	.	8.eL	.
16GG	.	16B	.	16d	.	16e	.
8.GG#	.	8.B	.	8.d	.	8.e	.
16GG#yJ	.	16BJ	.	16dJ	.	16eJ	.
8.AAL	.	8.AL	.	8.dL	.	8.f#yL	.
16AA	.	16A	.	16d	.	16f#y	.
8.BB	.	8.G	.	8.d	.	8.g	.
16BBJ	.	16GJ	.	16dJ	.	16gJ	.
=55	=55	=55	=55	=55	=55	=55	=55
8AA	.	8A	.	8d	.	8f#y	.
8r	.	8r	.	8r	.	8r	.
8AA	.	8G	.	(8.c#LT	.	(8.eLT	.
8r	.	8r	.	.	.	.	.
.	.	.	.	32B	.	32d	.
.	.	.	.	32c#yJ)	.	32eJ)	.
4DD	.	4F#y	.	4d	.	4d	.
8r	.	8r	.	8r	.	8r	.
=:|!	=:|!	=:|!	=:|!	=:|!	=:|!	=:|!	=:|!
8r	.	8r	.	8r	.	8d	.
=56	=56	=56	=56	=56	=56	=56	=56
4D	.	4F#y	.	4d	.	(4a	.
4F#y	.	4A	.	4a	.	4dd)	.
[2E	.	[2e	.	[2g	.	[2dd	.
=57	=57	=57	=57	=57	=57	=57	=57
2E_	.	2e_	.	2g_	.	(16ddL_	.
.	.	.	.	.	.	16cc#	.
.	.	.	.	.	.	16ee	.
.	.	.	.	.	.	16ddJ	.
.	.	.	.	.	.	16ff#yL	.
.	.	.	.	.	.	16ee	.
.	.	.	.	.	.	16gg	>
.	.	.	.	.	.	16ff#yJ	.
4E]	.	4e]	.	4g]	.	8aaL	.
.	.	.	.	.	.	8gg	.
4r	.	4r	.	4r	.	8ff#y	.
.	.	.	.	.	.	8eeJ)	.
=58	=58	=58	=58	=58	=58	=58	=58
1r	.	1r	.	1r	.	(8ddL	]
.	.	.	.	.	.	8cc#	.
.	.	.	.	.	.	8b	.
.	.	.	.	.	.	8aJ	.
.	.	.	.	.	.	8g#L	.
.	.	.	.	.	.	8aJ	.
.	.	.	.	.	.	8a#L	.
.	.	.	.	.	.	16b	.
.	.	.	.	.	.	16gnJ)	.
=59	=59	=59	=59	=59	=59	=59	=59
4r	.	4r	.	4r	.	[2g	.
(4D#'	.	(4A'	.	4cn	.	.	.
4D#y'	.	4A'	.	(4c	.	(8gL_	.
.	.	.	.	.	.	8f#y	.
4D#y')	.	4A')	.	4f#y)	.	8ccn	.
.	.	.	.	.	.	8bJ)	.
=60	=60	=60	=60	=60	=60	=60	=60
2D	.	2A	.	2f#y	.	2b	.
2r	.	2r	.	4r	.	2r	.
.	.	.	.	8r	.	.	.
.	.	.	.	8e	.	.	.
=61	=61	=61	=61	=61	=61	=61	=61
4E	.	4g	.	(4b	.	(4b	.
4Cn	.	4g	.	4ee)	.	4a#)	.
[2BB	.	[2g	.	[2ee	.	[2a#y	.
!!LO:LB
=62	=62	=62	=62	=62	=62	=62	=62
1BB_	.	(2g_	.	4ee]	.	(2a#y_	.
.	.	.	.	(16dd#L	.	.	.
.	.	.	.	16ee	.	.	.
.	.	.	.	16ff#y	.	.	.
.	.	.	.	16eeJ	.	.	.
.	.	2f#y)	.	8dd#yL)	.	2an)	.
.	.	.	.	(8ccc	.	.	.
.	.	.	.	8bb	.	.	.
.	.	.	.	8aanJ)	.	.	.
=63	=63	=63	=63	=63	=63	=63	=63
4BB]	.	4f#y]	.	(8ggL	.	4a]	.
.	.	.	.	8ff#y	.	.	.
4r	.	4r	.	8ee	.	4r	.
.	.	.	.	8dd#J	.	.	.
2r	.	2r	.	8ccL	.	2r	.
.	.	.	.	8b	.	.	.
.	.	.	.	8cc	.	.	.
.	.	.	.	8aJ)	.	.	.
=64	=64	=64	=64	=64	=64	=64	=64
4E	.	4d	.	8r	.	4g# 4B	.
.	.	.	.	(8g#L	.	.	.
4r	.	4r	.	8b	.	4r	.
.	.	.	.	8ddnJ	.	.	.
2r	.	2r	.	8ffnL	.	2r	.
.	.	.	.	8ee	.	.	.
.	.	.	.	8bb	.	.	.
.	.	.	.	8ddJ)	.	.	.
=65	=65	=65	=65	=65	=65	=65	=65
4AA	.	4c#	.	8r	.	4gn 4A	.
.	.	.	.	(8cc#L	.	.	.
4r	.	4r	.	8ee	.	4r	.
.	.	.	.	8gnJ)	.	.	.
4D	.	4cn	.	8r	.	4f# 4A	.
.	.	.	.	(8f#L	.	.	.
4r	.	4r	.	8a	.	4r	.
.	.	.	.	8cnJ)	.	.	.
=66	=66	=66	=66	=66	=66	=66	=66
4r	.	4r	.	[2c	.	4r	.
(4GG'	.	4Fn	.	.	.	4d	.
4GG'	.	(4F	.	(8cL_	.	(4d	.
.	.	.	.	8B	.	.	.
4GG')	.	4D)	.	8g	.	4B)	.
.	.	.	.	8fnJ)	.	.	.
=67	=67	=67	=67	=67	=67	=67	=67
2GG	.	2D	.	2f	.	2B	.
2r	.	4r	.	2r	.	2r	.
.	.	8r	.	.	.	.	.
.	.	8C	.	.	.	.	.
!!LO:LB
=68	=68	=68	=68	=68	=68	=68	=68
4EE	.	(4G	.	2r	.	2r	.
4CC	.	4c)	.	.	.	.	.
[2GG	.	[2c	.	[2d 2G	.	[2fn 2G	.
=69	=69	=69	=69	=69	=69	=69	=69
2GG_	.	(16cL_	.	8dL]	.	8fL]	.
.	.	16B	.	.	.	.	.
.	.	16d	.	8c	.	8e	.
.	.	16cJ	.	.	.	.	.
.	.	16eL	.	8B	.	8d	.
.	.	16d	.	.	.	.	.
.	.	16fn	.	8AJ	.	8cJ	.
.	.	16eJ)	.	.	.	.	.
8GG]	.	(8gL	.	8G	.	8B	.
8r	.	8f	.	8r	.	8r	.
4r	.	8e	.	4r	.	4r	.
.	.	8dJ)	.	.	.	.	.
=70	=70	=70	=70	=70	=70	=70	=70
1r	.	(8cL	.	1r	.	1r	.
.	.	8BJ)	.	.	.	.	.
.	.	2dd	.	.	.	.	.
.	.	(16ccL	.	.	.	.	.
.	.	16b	.	.	.	.	.
.	.	16a	.	.	.	.	.
.	.	16gJ)	.	.	.	.	.
=71	=71	=71	=71	=71	=71	=71	=71
1r	.	(16fnL	.	1r	.	1r	.
.	.	16g	.	.	.	.	.
.	.	16a	.	.	.	.	.
.	.	16gJ	.	.	.	.	.
.	.	16fL	.	.	.	.	.
.	.	16e	.	.	.	.	.
.	.	16d	.	.	.	.	.
.	.	16cJ	.	.	.	.	.
.	.	16BL	.	.	.	.	.
.	.	16c	.	.	.	.	.
.	.	16d	.	.	.	.	.
.	.	16cJ	.	.	.	.	.
.	.	16BL	.	.	.	.	.
.	.	16A	.	.	.	.	.
.	.	16G	.	.	.	.	.
.	.	16FnJ)	.	.	.	.	.
!!LO:LB
=72	=72	=72	=72	=72	=72	=72	=72
8CCL	.	8G 8E	.	4r	.	8B-	.
8C	.	4G 4E	.	.	.	4B-y	.
8C	.	.	.	2gg	.	.	.
8CJ	.	4G 4E	.	.	.	4B-y	.
8CL	.	.	.	.	.	.	.
8C	.	4G 4E	.	.	.	4B-y	.
8C	.	.	.	(16ffnL	.	.	.
.	.	.	.	16ee	.	.	.
8CJ	.	[8G [8E	.	16dd	.	[8B-y	.
.	.	.	.	16ccJ)	.	.	.
=73	=73	=73	=73	=73	=73	=73	=73
8CL	.	8G] 8E]	.	(16b-L	.	8B-y]	.
.	.	.	.	16cc	.	.	.
8C	.	4G 4E	.	16dd	.	4B	.
.	.	.	.	16ccJ	.	.	.
8C	.	.	.	16b-yL	.	.	.
.	.	.	.	16a	.	.	.
8CJ	.	4G 4E	.	16g	.	4B-y	.
.	.	.	.	16fnJ	.	.	.
8CL	.	.	.	16eL	.	.	.
.	.	.	.	16f	.	.	.
8C	.	4G 4E	.	16g	.	4B-y	.
.	.	.	.	16fJ	.	.	.
8C	.	.	.	16eL	.	.	.
.	.	.	.	16d	.	.	.
8CJ	.	[8G [8E	.	16c	.	8B-y	.
.	.	.	.	16B-J)	.	.	.
=74	=74	=74	=74	=74	=74	=74	=74
8CC#L	.	8G] 8E]	.	8A	.	8A	.
8C#	.	4G 4E	.	4A	.	8r	.
8C#y	.	.	.	.	.	2eee	.
8C#yJ	.	4G 4E	.	4A	.	.	.
8C#yL	.	.	.	.	.	.	.
8C#y	.	4G 4E	.	4A	.	.	.
8C#y	.	.	.	.	.	(16dddL	.
.	.	.	.	.	.	16ccc#	.
8C#yJ	.	[8G [8E	.	[8A	.	16bbn	.
.	.	.	.	.	.	16aaJ)	.
=75	=75	=75	=75	=75	=75	=75	=75
8CL	.	8G] 8E]	.	8A]	.	(16ggL	.
.	.	.	.	.	.	16aa	.
8C#y	.	4G 4E	.	4A	.	16bb-	.
.	.	.	.	.	.	16aaJ	.
8C#y	.	.	.	.	.	16ggL	.
.	.	.	.	.	.	16ffn	.
8C#yJ	.	4G 4E	.	4A	.	16ee	.
.	.	.	.	.	.	16ddJ	.
8C#yL	.	.	.	.	.	16cc#L	.
.	.	.	.	.	.	16dd	.
8C#y	.	4G 4E	.	4A	.	16ee	.
.	.	.	.	.	.	16ddJ	.
8C#y	.	.	.	.	.	16cc#yL	.
.	.	.	.	.	.	16b-	.
8C#yJ	.	8G 8E	.	[8A	.	16a	.
.	.	.	.	.	.	16gJ)	.
=76	=76	=76	=76	=76	=76	=76	=76
8DDL	.	8F#	.	8A]	.	8f#	.
8D	.	4cn 4D	.	8r	.	4f#y 4A	.
8D	.	.	.	2aa	.	.	.
8DJ	.	4c 4D	.	.	.	4f#y 4A	.
8DL	.	.	.	.	.	.	.
8D	.	4c 4D	.	.	.	4f#y 4A	.
8D	.	.	.	(16ggL	.	.	.
.	.	.	.	16ff#y	.	.	.
8DJ	.	[8c [8D	.	16ee	.	[8f#y [8A	.
.	.	.	.	16ddJ)	.	.	.
=77	=77	=77	=77	=77	=77	=77	=77
8DL	.	8c] 8D]	.	(16ccnL	.	8f#y] 8A]	.
.	.	.	.	16dd	.	.	.
8D	.	4c 4D	.	16ee	.	4f#y 4A	.
.	.	.	.	16ddJ	.	.	.
8D	.	.	.	16ccL	.	.	.
.	.	.	.	16bn	.	.	.
8DJ	.	4c 4D	.	16a	.	4f#y 4A	.
.	.	.	.	16gJ	.	.	.
8DL	.	.	.	16f#L	.	.	.
.	.	.	.	16g	.	.	.
8D	.	4c 4D	.	16a	.	4f#y 4A	.
.	.	.	.	16gJ	.	.	.
8D	.	.	.	16f#yL	.	.	.
.	.	.	.	16e	.	.	.
8DJ	.	8c 8D	.	16d	.	[8f#y [8A	.
.	.	.	.	16cJ)	.	.	.
=78	=78	=78	=78	=78	=78	=78	=78
8DD#L	.	8B	.	8B	.	8f#y] 8A]	.
8D#	.	4A 4F#	.	4B	.	8r	.
8D#y	.	.	.	.	.	2ff#	.
8D#yJ	.	4A 4F#y	.	4B	.	.	.
8D#yL	.	.	.	.	.	.	.
8D#y	.	4A 4F#y	.	4B	.	.	.
8D#y	.	.	.	.	.	(16eeL	.
.	.	.	.	.	.	16dd#	.
8D#yJ	.	[8A [8F#y	.	[8B	.	16cc#	.
.	.	.	.	.	.	16bJ)	.
=79	=79	=79	=79	=79	=79	=79	=79
8D#L	.	8A] 8F#y]	.	8B]	.	(16aL	.
.	.	.	.	.	.	16b	.
8D#y	.	4A 4F#y	.	4B	.	16ccn	.
.	.	.	.	.	.	16bJ	.
8D#y	.	.	.	.	.	16aL	.
.	.	.	.	.	.	16g	.
8D#yJ	.	4A 4F#y	.	4B	.	16f#y	.
.	.	.	.	.	.	16eJ	.
8D#yL	.	.	.	.	.	16d#L	.
.	.	.	.	.	.	16e	.
8D#y	.	4A 4F#y	.	4B	.	16f#y	.
.	.	.	.	.	.	16eJ	.
8D#y	.	.	.	.	.	16d#yL	.
.	.	.	.	.	.	16c	.
8D#yJ	.	8A 8F#y	.	[8B	.	16B	.
.	.	.	.	.	.	16AJ)	.
!!LO:LB
=80	=80	=80	=80	=80	=80	=80	=80
4E	.	8G 8E	.	8BL]	.	8G	.
.	.	4e	.	(16g	.	4b	.
.	.	.	.	16aJ	.	.	.
4r	.	.	.	8gL)	.	.	.
.	.	8e	.	8gJ	.	8b	.
4C	.	8r	.	8r	.	8r	.
.	.	(4g	.	(16a#L	.	4ee	.
.	.	.	.	16bJ	.	.	.
4r	.	.	.	8a#yL)	.	.	.
.	.	8e)	.	8a#yJ	.	8ee	.
=81	=81	=81	=81	=81	=81	=81	=81
4BB	.	8r	.	8r	.	8r	.
.	.	4f#y	.	(16bL	.	4dd#	.
.	.	.	.	16ccJ	.	.	.
4r	.	.	.	8bL)	.	.	.
.	.	8f#y	.	8bJ	.	8dd#y	.
4D#	.	8r	.	8r	.	8r	.
.	.	4f#y	.	(16bL	.	4aa	.
.	.	.	.	16ccJ	.	.	.
4r	.	.	.	8bL)	.	.	.
.	.	8f#y	.	8bJ	.	8aa	.
=82	=82	=82	=82	=82	=82	=82	=82
8EL	.	8eL	.	8bL	.	(4gg#	.
8E	.	8e	.	8b	.	.	.
8E	.	8e	.	8b	.	4ggn)	.
8EJ	.	8eJ	.	8bJ	.	.	.
.	.	.	.	.	.	(<8qgg	.
8AL	.	(8cL	.	8ccL	.	4ffn)	.
8A	.	8a	.	(8cc	.	.	.
8B	.	8g	.	8b	.	8.eeL	.
8BJ	.	8f#J)	.	8aJ)	.	.	.
.	.	.	.	.	.	16dd#J	.
=83	=83	=83	=83	=83	=83	=83	=83
8cL	.	8eL	.	8gL	.	(4ee	.
8c	.	8e	.	8g	.	.	.
8A	.	8e	.	8a	.	4cc	.
8AJ	.	8eJ	.	8aJ	.	.	.
8BL	.	8eL	.	8gL	.	4b	.
8B	.	8e	.	8g	.	.	.
8BB	.	8d#	.	8f#y	.	4aa	.
8BBJ	.	8d#yJ	.	8f#yJ	.	.	.
=84	=84	=84	=84	=84	=84	=84	=84
8EL	.	8eL	.	(8eL	.	4gg#	.
8E	.	8e	.	8b)	.	.	.
8E	.	8e	.	8b	.	4ggn)	.
8EJ	.	8eJ	.	8bJ	.	.	.
.	.	.	.	.	.	(<8qgg	.
8AL	.	(8cL	.	8ccL	.	4ffn)	.
8A	.	8a	.	(8cc	.	.	.
8B	.	8g	.	8b	.	8.eeL	.
8BJ	.	8f#J)	.	8aJ)	.	.	.
.	.	.	.	.	.	16dd#J	.
!!LO:LB
=85	=85	=85	=85	=85	=85	=85	=85
8cL	.	8eL	.	8gL	.	(4ee	.
8c	.	8e	.	8g	.	.	.
8A	.	8e	.	8a	.	4cc	.
8AJ	.	8eJ	.	8aJ	.	.	.
8BL	.	8eL	.	8gL	.	4b	.
8B	.	8e	.	8g	.	.	.
8BB	.	8A	.	8f#y	.	4d#)	.
8BBJ	.	8AJ	.	8f#yJ	.	.	.
=86	=86	=86	=86	=86	=86	=86	=86
8E	.	8G	.	8e	.	4e	.
8r	.	8r	.	8r	.	.	.
8BBL	.	8AL	.	(16f#yL	.	4r	.
.	.	.	.	16a	.	.	.
8BBJ	.	8AJ	.	16g	.	.	.
.	.	.	.	16f#yJ)	.	.	.
8E	.	8G	.	8e	.	2r	.
8r	.	8r	.	8r	.	.	.
8BL	.	(16f#yL	.	8dd#L	.	.	.
.	.	16a	.	.	.	.	.
8BJ	.	16g	.	8dd#yJ	.	.	.
.	.	16f#yJ)	.	.	.	.	.
=87	=87	=87	=87	=87	=87	=87	=87
8e	.	8e	.	8ee	.	4r	.
8r	.	8r	.	8r	.	.	.
8BL	.	8d#L	.	8aL	.	(16ff#yL	.
.	.	.	.	.	.	16aa	.
8BJ	.	8d#yJ	.	8aJ	.	16gg	.
.	.	.	.	.	.	16ff#yJ)	.
8c	.	8e	.	8g	.	8ee	.
8r	.	8r	.	8r	.	8r	.
4r	.	4r	.	4r	.	4r	.
=88	=88	=88	=88	=88	=88	=88	=88
8.AAL	.	8.cL	.	8.eL	.	8.f#yL	.
16AA	.	16c	.	16e	.	16f#y	.
8.AA#	.	8.c#	.	8.e	.	8.f#y	.
16AA#yJ	.	16c#yJ	.	16eJ	.	16f#yJ	.
8.BBL	.	8.BL	.	8.eL	.	8.gL	.
16BB	.	16B	.	16e	.	16g	.
8.C	.	8.A	.	8.e	.	8.a	.
16CJ	.	16AJ	.	16eJ	.	16aJ	.
=89	=89	=89	=89	=89	=89	=89	=89
8BB	.	8B	.	8e	.	8g	.
8r	.	8r	.	8r	.	8r	.
8BB	.	8A	.	(8.d#LT	.	(8.f#yLT	.
8r	.	8r	.	.	.	.	.
.	.	.	.	32c#	.	32e	.
.	.	.	.	32d#yJ)	.	32f#yJ)	.
4EE	.	4G	.	4e	.	4e	.
4r	.	4r	.	4r	.	4r	.
!!LO:LB
=90	=90	=90	=90	=90	=90	=90	=90
(1GG	p	[2.D	.	[1B	p	[2fn	.
.	.	.	.	.	.	(8fL_	.
.	.	.	.	.	.	16g	.
.	.	.	.	.	.	16aJ	.
.	.	(8DL_	.	.	.	16gL	.
.	.	.	.	.	.	16f	.
.	.	16E	.	.	.	16e	.
.	.	16FnJ)	.	.	.	16dJ)	.
=91	=91	=91	=91	=91	=91	=91	=91
8C)	.	(8FnL	.	(8BL_	.	(8dL	.
8r	.	8EJ)	.	8cJ)	.	8cJ)	.
4r	.	4r	.	4r	.	[4cc	.
(2D	.	(4.A	.	[2f#	.	(8ccL_	.
.	.	.	.	.	.	16dd	.
.	.	.	.	.	.	16eeJ	.
.	.	.	.	.	.	16ddL	.
.	.	.	.	.	.	16cc	.
.	.	16BL	.	.	.	16b	.
.	.	16cJ)	.	.	.	16aJ)	.
=92	=92	=92	=92	=92	=92	=92	=92
8G)	.	(8cL	.	(8f#yL_	.	(8aL	.
8r	.	8BJ)	.	8gJ)	.	8gJ)	.
4r	.	4r	.	4r	.	[4gg	.
(2A	.	(4.e	.	(2cc#	.	(8ggL_	.
.	.	.	.	.	.	16aa	.
.	.	.	.	.	.	16bbJ	.
.	.	.	.	.	.	16aaL	.
.	.	.	.	.	.	16gg	.
.	.	16fL	.	.	.	16ff#	.
.	.	16gJ)	.	.	.	16eeJ)	.
=93	=93	=93	=93	=93	=93	=93	=93
8BL)	.	8f#yL	.	8ddL)	.	(4dd	.
8B	.	8f#y	.	8dd	.	.	.
8A	.	8f#y	.	8ccn	.	4dd#	.
8AJ	.	8f#yJ	.	8ccJ	.	.	.
8GL	.	8gL	.	8bL	.	4ee	.
8G	.	8g	.	8b	.	.	.
8F#y	.	8d#	.	8a	.	4ff#y)	.
8F#yJ	.	8d#yJ	.	8aJ	.	.	.
=94	=94	=94	=94	=94	=94	=94	=94
8EL	.	8eL	.	8gL	.	(8aaL	.
8E	.	8e	.	8g	.	8ggJ)	.
8G	.	8B	.	8b	.	8.ff#yL	.
8GJ	.	8gJ	.	8bJ	.	.	.
.	.	.	.	.	.	16eeJ	.
8AL	.	8f#yL	.	8aL	.	(4dd	.
8A	.	8f#y	.	8a	.	.	.
8A#	.	8e	.	8g	.	4cc#)	.
8A#yJ	.	8eJ	.	8gJ	.	.	.
=95	=95	=95	=95	=95	=95	=95	=95
8BL	.	8dnL	.	8f#yL	.	(4dd	.
8B	.	8d	.	8f#y	.	.	.
8An	.	8cn	.	8f#y	.	4dd#	.
8AJ	.	8cJ	.	8f#yJ	.	.	.
8GL	.	8BL	.	8eL	.	4ee	.
8G	.	8B	.	8e	.	.	.
8F#y	.	8A	.	8d#	.	4ff#y)	.
8F#yJ	.	8AJ	.	8d#yJ	.	.	.
=96	=96	=96	=96	=96	=96	=96	=96
8EL	.	8GL	.	8eL	.	(8ggL	.
8E	.	8G	.	8e	.	16aa	.
.	.	.	.	.	.	16bbJ	.
8G	.	8B	.	8e	.	16aaL	.
.	.	.	.	.	.	16gg	.
8GJ	.	8BJ	.	8gJ	.	16ff#y	.
.	.	.	.	.	.	16eeJ)	.
8AL	.	8AL	.	8f#yL	.	(4dd	.
8A	.	8A	.	8f#y	.	.	.
8AA	.	8G	.	8e	.	4cc#)	.
8AAJ	.	8GJ	.	8eJ	.	.	.
=97	=97	=97	=97	=97	=97	=97	=97
8D	.	8F#y	.	8dn	.	8dd	.
8r	.	8r	.	8r	.	8r	.
8AA'L	.	8G'L	.	8c#'L	.	(16eL	.
.	.	.	.	.	.	16g	.
8AA'J	.	8G'J	.	8c#y'J	.	16f#y	.
.	.	.	.	.	.	16eJ)	.
8D	.	8F#y	.	8d	.	8d	.
8r	.	8r	.	8r	.	8r	.
8A'L	.	(16eL	.	8g'L	.	8cc#'L	.
.	.	16g	.	.	.	.	.
8A'J	.	16f#y	.	8g'J	.	8cc#y'J	.
.	.	16eJ)	.	.	.	.	.
=98	=98	=98	=98	=98	=98	=98	=98
8d	.	8d	.	8f#y	.	8dd	.
8r	.	8r	.	8r	.	8r	.
8A'L	.	8g'L	.	(16eeL	.	8ccc#'L	.
.	.	.	.	16gg	.	.	.
8A'J	.	8g'J	.	16ff#y	.	8ccc#y'J	.
.	.	.	.	16eeJ)	.	.	.
8B	.	8f#y	.	8dd	.	8ddd	.
8r	.	8r	.	8r	.	8r	.
4r	.	4r	.	4r	.	4r	.
!!LO:LB
=99	=99	=99	=99	=99	=99	=99	=99
8.GGL	.	8.BL	.	8.dL	.	8.eL	.
16GG	.	16B	.	16d	.	16e	.
8.GG#	.	8.B	.	8.d	.	8.e	.
16GG#yJ	.	16BJ	.	16dJ	.	16eJ	.
8.AAL	.	8.AL	.	8.dL	.	8.f#yL	.
16AA	.	16A	.	16d	.	16f#y	.
8.BB	.	8.G	.	8.d	.	8.g	.
16BBJ	.	16GJ	.	16dJ	.	16gJ	.
=100	=100	=100	=100	=100	=100	=100	=100
8AA	.	8A	.	8d	.	8f#y	.
8r	.	8r	.	8r	.	8r	.
8AA	.	8G	.	(8.c#LT	.	(8.eLT	.
8r	.	8r	.	.	.	.	.
.	.	.	.	32B	.	32d	.
.	.	.	.	32c#yJ)	.	32eJ)	.
4DD	.	4F#y	.	4d	.	4d	.
4r	.	4r	.	4r	.	4r	.
=101	=101	=101	=101	=101	=101	=101	=101
2r	.	2r	.	8f#y	.	8a	.
.	.	.	.	8r	.	8r	.
.	.	.	.	(8.eLT	.	(8.gLT	.
.	.	.	.	32d	.	32f#y	.
.	.	.	.	32eJ)	.	32gJ)	.
8F#y	.	8A	.	4d	.	4f#y	.
8r	.	8r	.	.	.	.	.
(8.ELT	.	(8.GLT	.	4r	.	4r	.
32D	.	32F#y	.	.	.	.	.
32EJ)	.	32GJ)	.	.	.	.	.
=102	=102	=102	=102	=102	=102	=102	=102
4D	.	4F#y	.	8a	.	8ccn	.
.	.	.	.	8r	.	8r	.
4r	.	4r	.	(8.gLT	.	(8.bLT	.
.	.	.	.	32f#y	.	32a	.
.	.	.	.	32gJ)	.	32bJ)	.
8A	.	8c	.	4f#y	.	4a	.
8r	.	8r	.	.	.	.	.
(8.GLT	.	(8.BLT	.	4r	.	4r	.
32F#y	.	32A	.	.	.	.	.
32GJ)	.	32BJ)	.	.	.	.	.
=103	=103	=103	=103	=103	=103	=103	=103
4F#y	.	4A	.	8ccn	cresc.	8ee	cresc.
.	.	.	.	8r	.	8r	.
4r	.	4r	.	(8.bLT	.	(8.ddLT	.
.	.	.	.	32a	.	32ccn	.
.	.	.	.	32bJ)	.	32ddJ)	.
2r	.	4r	.	(4a	.	(4cc	.
.	.	(4d	.	4f#y)	.	4aa)	.
!!LO:LB
=104	=104	=104	=104	=104	=104	=104	=104
(16dL	.	2a)	.	[2cc	.	[2gg	.
16c#	.	.	.	.	.	.	.
16d	.	.	.	.	.	.	.
16c#yJ	.	.	.	.	.	.	.
16dL	.	.	.	.	.	.	.
16c#y	.	.	.	.	.	.	.
16d	.	.	.	.	.	.	.
16c#yJ	.	.	.	.	.	.	.
2d)	.	(16aL_	.	(16ccL_	.	(8ggL_	.
.	.	16g#	.	16b	.	.	.
.	.	16a	.	16cc	.	8ff#y	.
.	.	16g#yJ	.	16bJ	.	.	.
.	.	16aL	.	16ccL	.	8ccc	.
.	.	16g#y	.	16b	.	.	.
.	.	16a	.	16cc	.	8aaJ)	.
.	.	16g#yJ)	.	16bJ)	.	.	.
=105	=105	=105	=105	=105	=105	=105	=105
(16dL_	.	[2a	.	[2cc	.	[2gg	.
16c#	.	.	.	.	.	.	.
16d	.	.	.	.	.	.	.
16c#yJ	.	.	.	.	.	.	.
16dL	.	.	.	.	.	.	.
16c#y	.	.	.	.	.	.	.
16d	.	.	.	.	.	.	.
16c#yJ	.	.	.	.	.	.	.
2d)	.	(16aL_	.	(16ccL_	.	(8ggL_	.
.	.	16g#	.	16b	.	.	.
.	.	16a	.	16cc	.	8ff#y	.
.	.	16g#yJ	.	16bJ	.	.	.
.	.	16aL	.	16ccL	.	8ccc	.
.	.	16g#y	.	16b	.	.	.
.	.	16a	.	16cc	.	8aaJ)	.
.	.	16g#yJ)	.	16bJ)	.	.	.
=106	=106	=106	=106	=106	=106	=106	=106
1d]	.	(4a	.	(4cc	.	(8gg	.
.	.	.	.	.	.	4ff#y	.
.	.	4gn	.	4b	.	.	.
!LO:TX:t=calando	!	!	!	!	!	!LO:TX:i:t=ca	!
.	.	.	.	.	.	4ee	.
.	.	4f#y	.	4a	.	.	.
.	.	.	.	.	.	4dd	.
!	!	!	!	!LO:TX:t=calando	!	!	!
.	.	4e	.	4g	.	.	.
!	!	!	!	!	!	!LO:TX:i:t=lan	!
.	.	.	.	.	.	8cc)	.
=107	=107	=107	=107	=107	=107	=107	=107
1D	.	4d	.	4f#y	.	(8cc_	.
.	.	.	.	.	.	4b	.
.	.	4c	.	4e	.	.	.
!	!	!	!	!	!	!LO:TX:i:t=do	!
.	.	.	.	.	.	4a	.
.	.	4B	.	4d	.	.	.
.	.	.	.	.	.	4g	.
.	.	4A)	.	4c)	.	.	.
.	.	.	.	.	.	8f#y)	.
!!LO:LB
=108	=108	=108	=108	=108	=108	=108	=108
4GG	.	4G	.	4B	.	(4dd	.
4B	.	4d	.	4dd	.	4gg)	.
(4.A	.	(4.a	.	(4.cc	.	(4gg	.
.	.	.	.	.	.	8ff#yL)	.
8G)	.	8g)	.	8b)	.	8eeJ	.
=109	=109	=109	=109	=109	=109	=109	=109
(4F#y	.	4f#y	.	(4a	.	(8ddL	.
.	.	.	.	.	.	8dd#	.
4G#)	.	(2e	.	4b)	.	8ee	.
.	.	.	.	.	.	8bJ)	.
[4A	.	.	.	(8g#L	.	(8ddnL	.
.	.	.	.	8aJ	.	8cc#J	.
8A]	.	8A)	.	8e)	.	8ccn)	.
8r	.	8r	.	8r	.	8r	.
=110	=110	=110	=110	=110	=110	=110	=110
4AA	.	(4A	.	2e	.	(8.ccLT	.
.	.	.	.	.	.	32dd	.
.	.	.	.	.	.	32eeJ)	.
4C	.	8EL	.	.	.	(16ddL	.
.	.	.	.	.	.	16cc	.
.	.	8cJ)	.	.	.	16b	.
.	.	.	.	.	.	16aJ)	.
(4.D	.	(4B	.	(4.d	.	(4g	.
.	.	8AL	.	.	.	8f#yL	.
8E)	.	8GJ)	.	8c#)	.	8eJ)	.
=111	=111	=111	=111	=111	=111	=111	=111
2F#y	.	4A	.	(4d	.	8dL	.
.	.	.	.	.	.	(8ee	.
.	.	[2d	.	4a)	.	8dd	.
.	.	.	.	.	.	8cc#J	.
[4G	.	.	.	(8aL_	.	8ccnL	.
.	.	.	.	8f#yJ	.	8a#J	.
8G]	.	8d]	.	8g)	.	8b)	.
8r	.	8r	.	8r	.	8r	.
=112	=112	=112	=112	=112	=112	=112	=112
2r	.	4an	.	1r	.	2r	.
.	.	(<16qdd	.	.	.	.	.
.	.	8ccL)	.	.	.	.	.
.	.	16b	.	.	.	.	.
.	.	16aJ	.	.	.	.	.
(4C	.	(4f#y	.	.	.	[4d (4A	.
8BB)	.	8g)	.	.	.	8d] 8B)	.
8r	.	8r	.	.	.	8r	.
=113	=113	=113	=113	=113	=113	=113	=113
2r	.	2r	.	4a	.	1r	.
.	.	.	.	(<16qdd	.	.	.
.	.	.	.	8ccL)	.	.	.
.	.	.	.	16b	.	.	.
.	.	.	.	16aJ	.	.	.
(4c	.	(4a [4d	.	(4ff#y	.	.	.
8B)	.	8b) 8d]	.	8gg)	.	.	.
8r	.	8r	.	8r	.	.	.
=114	=114	=114	=114	=114	=114	=114	=114
2r	.	2r	.	2r	.	4aa	.
.	.	.	.	.	.	(<16qddd	.
.	.	.	.	.	.	8cccL)	.
.	.	.	.	.	.	16bb	.
.	.	.	.	.	.	16aaJ	.
2C#	.	2A	.	[2g	.	(4ddd#	.
.	.	.	.	.	.	4eee)	.
=115	=115	=115	=115	=115	=115	=115	=115
(4D	cresc.	(4B	cresc.	(4g_	cresc.	(4.gg	cresc.
4D#	.	4c	.	4f#y	.	.	.
.	.	.	.	.	.	16bbL	.
.	.	.	.	.	.	16aaJ	.
4E)	.	4B)	.	4g)	.	4gg)	.
4r	.	4r	.	4r	.	4r	.
=116	=116	=116	=116	=116	=116	=116	=116
(2dn	.	(2g#	.	(2b	.	(4.ee	.
.	.	.	.	.	.	16ggL	.
.	.	.	.	.	.	16ffnJ	.
8cn)	.	8a)	.	8cc)	.	8ee)	.
8r	.	8r	.	8r	.	8r	.
4r	.	4r	.	4r	.	4r	.
=117	=117	=117	=117	=117	=117	=117	=117
2r	.	2r	.	2r	.	(16g#L	.
.	.	.	.	.	.	16a	.
.	.	.	.	.	.	16cc	.
.	.	.	.	.	.	16bJ	.
.	.	.	.	.	.	16ddL	.
.	.	.	.	.	.	16cc	.
.	.	.	.	.	.	16b	.
.	.	.	.	.	.	16aJ)	.
(2C#	.	(2B-	.	2g	.	(8dd#'L	.
.	.	.	.	.	.	8ee'	.
.	.	.	.	.	.	8ff#y'	.
.	.	.	.	.	.	8gg'J)	.
=118	=118	=118	=118	=118	=118	=118	=118
4D)	cresc.	(4Bn)	cresc.	(4d	cresc.	(4.gn	cresc.
4DD	.	4F#y	.	4c	.	.	.
.	.	.	.	.	.	16bL	.
.	.	.	.	.	.	16aJ	.
4GG	.	4G)	.	4B)	.	4g)	.
4r	.	4r	.	8r	.	4r	.
.	.	.	.	8G	.	.	.
!!LO:LB
=119	=119	=119	=119	=119	=119	=119	=119
4GG	.	4B	.	(4d	.	2r	.
4BB	.	4d	.	4g)	.	.	.
(4.AA	.	(4.c	.	(4g	.	4r	.
.	.	.	.	8f#yL)	.	8r	.
8GG)	.	8B)	.	8eJ	.	8g	.
=120	=120	=120	=120	=120	=120	=120	=120
(4FF#y	.	(4A	.	(8dL	.	(4dd	.
.	.	.	.	8d#	.	.	.
8GGL)	.	4B)	.	8e	.	4gg)	.
8GJ	.	.	.	8BJ)	.	.	.
(4B	.	4r	.	(4dn	.	(4gg	.
8AL)	.	[4d	.	8cL	.	8ff#yL)	.
8GJ	.	.	.	8BJ)	.	8eeJ	.
=121	=121	=121	=121	=121	=121	=121	=121
(4F#y	.	8dL_	.	4A	.	(8ddL	.
.	.	(8a	.	.	.	8dd#	.
4G#)	.	8b	.	4r	.	8ee	.
.	.	8g#J)	.	.	.	8bJ)	.
2A	.	4e	.	8r	.	(4ddn	.
.	.	.	.	(8g#LT	.	.	.
.	.	[4A	.	8a	.	8cc#)	.
.	.	.	.	8eJ)	.	8r	.
=122	=122	=122	=122	=122	=122	=122	=122
2D	.	4A]	.	(4gn	.	8r	.
.	.	.	.	.	.	(8ccnLT	.
.	.	2d	.	8f#y)	.	8dd	.
.	.	.	.	8r	.	8aJ)	.
2G	.	.	.	8r	.	(4a#	.
.	.	.	.	(8f#yLT	.	.	.
.	.	8GL	.	8g	.	8b)	.
.	.	[8bJ	.	8d#J)	.	8r	.
=123	=123	=123	=123	=123	=123	=123	=123
8CL	.	(8bL_	.	8eL	.	8r	.
(8c	.	8a	.	(8ee	.	(8aaL	.
8B	.	8g#	.	8dd	.	8bb	.
8AJ)	.	8aJ)	.	8ccJ)	.	8cccJ)	.
8r	.	(4.d	.	(4b	.	(4gg	.
8dL	.	.	.	.	.	.	.
(8D	.	.	.	8aL)	.	8ff#yL	.
8EJ)	.	8G)	.	8c#J	.	8eeJ)	.
!!LO:LB
=124	=124	=124	=124	=124	=124	=124	=124
4F#y	.	4A	.	4d	.	(8eeL_	.
.	.	.	.	.	.	8dd	.
4r	.	4r	.	4r	.	8cc#	.
.	.	.	.	.	.	8ccnJ	.
4G	.	4B	.	4d	.	8bL	.
.	.	.	.	.	.	8gg	.
4r	.	4r	.	4r	.	8ff#y	.
.	.	.	.	.	.	8ffnJ)	.
=125	=125	=125	=125	=125	=125	=125	=125
1r	.	2r	.	8r	.	[1ee	.
.	.	.	.	(8eL	.	.	.
.	.	.	.	8fn	.	.	.
.	.	.	.	8f#J	.	.	.
.	.	8r	.	8gL	.	.	.
.	.	(8eL	.	8g#	.	.	.
.	.	8fn	.	8a	.	.	.
.	.	8f#J	.	8a#J	.	.	.
=126	=126	=126	=126	=126	=126	=126	=126
8r	.	8gL	.	8bL)	.	(4ee_	.
(8EL	.	8g#J	.	(8ee	.	.	.
8Fn	.	4a)	.	8dd	.	2.eee)	.
8F#J	.	.	.	8ccJ	.	.	.
8GL	.	(8gnL	.	8bL	.	.	.
8G#	.	8dd	.	8ffn	.	.	.
8A	.	8cc	.	8ee	.	.	.
8BJ	.	8bJ	.	8ddJ	.	.	.
=127	=127	=127	=127	=127	=127	=127	=127
4c)	.	4a)	.	4cc)	.	8eee]	.
.	.	.	.	.	.	(8eeeL	.
4r	.	4r	.	4r	.	8ddd#	.
.	.	.	.	.	.	8dddnJ	.
2r	.	2r	.	8r	.	8ccc#L	.
.	.	.	.	(8eeL	.	8cccn	.
.	.	.	.	8dd	.	8bb	.
.	.	.	.	8ccJ)	.	8aaJ)	.
=128	=128	=128	=128	=128	=128	=128	=128
8r	cresc.	8r	cresc.	(8bL	cresc.	(8gg#L	do
(8cL	.	(8eL	.	8cc	.	8aa	.
8B	.	8d	.	8dd	.	8bb	.
8AJ)	.	8cJ)	.	8eeJ)	.	8cccJ)	.
8DL	.	4d	.	(4b	.	(4ggn	.
8dJ	.	.	.	.	.	.	.
[4e-	.	8r	.	8aL)	.	8ff#)	.
.	.	8A	.	8cJ	.	8r	.
!!LO:LB
=129	=129	=129	=129	=129	=129	=129	=129
4e-y]	.	2a	.	2cc	.	8r	.
.	.	.	.	.	.	(16cccL	.
.	.	.	.	.	.	16bbJ	.
4r	.	.	.	.	.	16dddL	.
.	.	.	.	.	.	16ccc	.
.	.	.	.	.	.	16bb-	.
.	.	.	.	.	.	16aaJ)	.
8r	.	4r	.	4r	.	(4gg	.
8d	.	.	.	.	.	.	.
[4e-	.	8r	.	8r	.	8ff#y)	.
.	.	8A	.	8c	.	8r	.
=130	=130	=130	=130	=130	=130	=130	=130
4e-y]	.	[2a	.	[2cc	.	8r	.
.	.	.	.	.	.	(16cccL	.
.	.	.	.	.	.	16bbnJ	.
4r	.	.	.	.	.	16dddL	.
.	.	.	.	.	.	16ccc	.
.	.	.	.	.	.	16bb-	.
.	.	.	.	.	.	16aaJ)	.
8r	.	8a]	.	8cc]	.	(16ggL	.
.	.	.	.	.	.	16ff#y	.
(8e-	.	(4f#y	.	(4a	.	16ccc	.
.	.	.	.	.	.	16bbnJ	.
4d)	.	.	.	.	.	16dddL	.
.	.	.	.	.	.	16ccc	.
.	.	8g)	.	8b-)	.	16bb-	.
.	.	.	.	.	.	16aaJ)	.
=131	=131	=131	=131	=131	=131	=131	=131
8dL]	.	8a	.	8cc	.	(16ggL	.
.	.	.	.	.	.	16ff#y	.
(8e-J	.	(4f#y	.	(4a	.	16ccc	.
.	.	.	.	.	.	16bbnJ	.
4.d)	.	.	.	.	.	16dddL	.
.	.	.	.	.	.	16ccc	.
.	.	8g)	.	8b-)	.	16bb-	.
.	.	.	.	.	.	16aaJ)	.
.	.	[2a	.	[2cc	.	[2gg	.
8DL	.	.	.	.	.	.	.
8d	.	.	.	.	.	.	.
8dJ	.	.	.	.	.	.	.
=132	=132	=132	=132	=132	=132	=132	=132
4d	.	4a_	.	4cc_	.	4gg]	.
4r	.	16aL_	.	16ccL_	.	16ff#y'L	.
.	.	16g'	.	16bn'	.	16gg'	.
.	.	16f#y'	.	16a'	.	16aa'	.
.	.	16e'J	.	16g'J	.	16bbn'J	.
2r	.	4d	.	4f#y	.	4ccc	.
.	.	4r	.	8r	.	4r	.
.	.	.	.	(8d	.	.	.
=133	=133	=133	=133	=133	=133	=133	=133
4G	.	4d	.	4b)	.	1r	.
4G	.	4d	.	4b	.	.	.
2G	.	2d	.	16bL	.	.	.
.	.	.	.	16a#	.	.	.
.	.	.	.	16b	.	.	.
.	.	.	.	16a#yJ	.	.	.
.	.	.	.	8bL	.	.	.
.	.	.	.	(8bJ	.	.	.
=134	=134	=134	=134	=134	=134	=134	=134
8r	.	8r	.	4.dd)	.	1r	.
(8GG	.	8BL	.	.	.	.	.
4.G)	.	(8b	.	.	.	.	.
.	.	8dJ)	.	(8b	.	.	.
.	.	8r	.	4.dd)	.	.	.
(8GG	.	8BL	.	.	.	.	.
4G)	.	(8b	.	.	.	.	.
.	.	8dJ)	.	(8b	.	.	.
=135	=135	=135	=135	=135	=135	=135	=135
4C	.	4e	.	4an)	.	1r	.
4C	.	4e	.	4a	.	.	.
2C	.	2e	.	16aL	.	.	.
.	.	.	.	16g#	.	.	.
.	.	.	.	16a	.	.	.
.	.	.	.	16g#yJ	.	.	.
.	.	.	.	8aL	.	.	.
.	.	.	.	(8aJ	.	.	.
=136	=136	=136	=136	=136	=136	=136	=136
8r	.	8r	.	4.cc)	.	1r	.
(8C	.	8AL	.	.	.	.	.
4.c)	.	(8e	.	.	.	.	.
.	.	8cJ)	.	(8a	.	.	.
.	.	8r	.	4.cc)	.	.	.
(8C	.	8AL	.	.	.	.	.
4c)	.	(8a	.	.	.	.	.
.	.	8f#yJ)	.	(8a	.	.	.
=137	=137	=137	=137	=137	=137	=137	=137
(2B	.	8r	.	(4gn)	.	1r	.
.	.	(4d'	.	.	.	.	.
.	.	.	.	4g#	.	.	.
.	.	4d'	.	.	.	.	.
2F#y)	.	.	.	4a	.	.	.
.	.	4d'	.	.	.	.	.
.	.	.	.	4a#)	.	.	.
.	.	8d')	.	.	.	.	.
!!LO:LB
=138	=138	=138	=138	=138	=138	=138	=138
(4G	.	(8dL_	.	4b	.	2r	.
.	.	8gJ)	.	.	.	.	.
4C)	.	(16aL	.	(16ccL	.	.	.
.	.	16b	.	16dd	.	.	.
.	.	16cc	.	16ee	.	.	.
.	.	16aJ)	.	16ccJ)	.	.	.
(16DL	.	(4g	.	(4b	.	4r	.
16C#	.	.	.	.	.	.	.
16D	.	.	.	.	.	.	.
16C#yJ	.	.	.	.	.	.	.
8D)	.	8f#y)	.	8an)	.	8r	.
8r	.	8r	.	8r	.	(8dd	.
=139	=139	=139	=139	=139	=139	=139	=139
8r	.	4g	.	4dd	.	4bb)	.
8GG	.	.	.	.	.	.	.
8r	.	4g	.	4dd	.	4bb	.
8GG	.	.	.	.	.	.	.
8r	.	16g'L	.	2dd	.	16bb'L	.
.	.	16f#y'	.	.	.	16aa#'	.
8GGL	.	16g'	.	.	.	16bb'	.
.	.	16f#y'J	.	.	.	16aa#y'J	.
8GGJ	.	8gL	.	.	.	8bbL	.
8r	.	(8gJ	.	.	.	(8bbJ	.
=140	=140	=140	=140	=140	=140	=140	=140
8r	.	4.b)	.	8r	.	4.ddd)	.
(8GG	.	.	.	(8dd	.	.	.
4.G)	.	.	.	4.gg)	.	.	.
.	.	(8g	.	.	.	(8bb	.
.	.	4.b)	.	.	.	4.ddd)	.
(8GG	.	.	.	(8dd	.	.	.
4G)	.	.	.	4gg)	.	.	.
.	.	(8g	.	.	.	(8bb	.
=141	=141	=141	=141	=141	=141	=141	=141
8r	.	4f#y)	.	4dd	.	4aa)	.
8C	.	.	.	.	.	.	.
8r	.	4f#y	.	4dd	.	4aa	.
8C	.	.	.	.	.	.	.
8r	.	16f#y'L	.	2dd	.	16aa'L	.
.	.	16e#'	.	.	.	16gg#'	.
8CL	.	16f#y'	.	.	.	16aa'	.
.	.	16e#y'J	.	.	.	16gg#y'J	.
8CJ	.	8f#yL	.	.	.	8aaL	.
8r	.	(8f#yJ	.	.	.	(8aaJ	.
!!LO:LB
=142	=142	=142	=142	=142	=142	=142	=142
8r	.	4.a)	.	8r	.	4.ccc)	.
(8CC	.	.	.	(8d	.	.	.
4.C)	.	.	.	4.dd)	.	.	.
.	.	(8f#y	.	.	.	(8aa	.
.	.	4.a)	.	.	.	4.ccc)	.
(8C	.	.	.	(8d	.	.	.
4c)	.	.	.	4dd)	.	.	.
.	.	(8f#y	.	.	.	(8aa	.
=143	=143	=143	=143	=143	=143	=143	=143
(2B	.	(4g)	.	(4dd_	.	(4ggn)	.
.	.	4dd	.	4ffn	.	4gg#	.
4c	.	4cc	.	4ee	.	4aa	.
4c#)	.	4ee)	.	4gg)	.	4bb-)	.
=144	=144	=144	=144	=144	=144	=144	=144
(2d	.	(4dd	.	4gg]	.	4bbn	.
.	.	.	.	(<16qbb	.	.	.
.	.	.	.	.	.	(<16qddd	.
.	.	4cc	.	8aaL)	.	8cccL)	.
.	.	.	.	16gg	.	16bb	.
.	.	.	.	16ff#J	.	16aaJ	.
4g)	.	4b)	.	4gg	.	16ggL	.
.	.	.	.	.	.	16ff#y	.
.	.	.	.	.	.	16ee	.
.	.	.	.	.	.	16ddJ	.
4r	.	4r	.	4r	.	16ccL	.
.	.	.	.	.	.	16b	.
.	.	.	.	.	.	16a	.
.	.	.	.	.	.	16gJ	.
=145	=145	=145	=145	=145	=145	=145	=145
(4E	.	2B	.	(4g	.	(4G	.
4D	.	.	.	4g#	.	4fn	.
4C	.	4c	.	4a	.	4e	.
4C#)	.	[4g	.	4b-)	.	4ee)	.
!!LO:LB
=146	=146	=146	=146	=146	=146	=146	=146
(2D	.	(4g_	.	4bn	.	(4d	.
.	.	.	.	(<16qdd	.	.	.
.	.	8aL)	.	8ccL)	.	4ff#	.
.	.	8cJ	.	16b	.	.	.
.	.	.	.	16aJ	.	.	.
8GG)	.	8B	.	8g	.	8gg)	.
8r	.	8r	.	8r	.	8r	.
4r	.	4r	.	4r	.	(16ggL	.
.	.	.	.	.	.	16ff#y)	.
.	.	.	.	.	.	16ee'	.
.	.	.	.	.	.	16dd'J	.
=147	=147	=147	=147	=147	=147	=147	=147
8F#yL	.	8dL	.	8aL	.	(16cc#L	.
.	.	.	.	.	.	16dd	.
8F#yJ	.	8dJ	.	8aJ	.	16cc#y	.
.	.	.	.	.	.	16ddJ	.
8F#y	.	8d	.	8a	.	16cc#yL	.
.	.	.	.	.	.	16dd	.
8r	.	8r	.	8r	.	16ee	.
.	.	.	.	.	.	16ccnJ)	.
8GL	.	8dL	.	8gL	.	(16a#L	.
.	.	.	.	.	.	16b	.
8GJ	.	8dJ	.	8gJ	.	16a#y	.
.	.	.	.	.	.	16bJ	.
8G	.	8d	.	8g	.	16a#yL	.
.	.	.	.	.	.	16b	.
8r	.	8r	.	8r	.	16dd	.
.	.	.	.	.	.	16bJ)	.
=148	=148	=148	=148	=148	=148	=148	=148
8C	.	8r	.	8r	.	(16g#L	.
.	.	.	.	.	.	16an	.
8r	.	8c	.	8e	.	16g#y	.
.	.	.	.	.	.	16aJ	.
8AA	.	8r	.	8r	.	16g#yL	.
.	.	.	.	.	.	16a	.
8r	.	8c	.	8e	.	16cc	.
.	.	.	.	.	.	16aJ)	.
4D	.	4d	.	4A	.	(16gnL	.
.	.	.	.	.	.	16f#y	.
.	.	.	.	.	.	16e	.
.	.	.	.	.	.	16dJ)	.
4r	.	4r	.	(16gL	.	(16ggL	.
.	.	.	.	16f#y)	.	16ff#y)	.
.	.	.	.	16e'	.	16ee'	.
.	.	.	.	16d'J	.	16dd'J	.
=149	=149	=149	=149	=149	=149	=149	=149
8FF#yL	.	8AL 8D	.	(16c#L	.	(16cc#L	.
.	.	.	.	16d	.	16dd	.
8FF#yJ	.	8AJ 8D	.	16c#y	.	16cc#y	.
.	.	.	.	16dJ	.	16ddJ	.
8FF#y	.	8A 8D	.	16c#yL	.	16cc#yL	.
.	.	.	.	16d	.	16dd	.
8r	.	8r	.	16e	.	16ee	.
.	.	.	.	16cnJ)	.	16ccnJ)	.
8GGL	.	8GL 8D	.	(16A#L	.	(16a#L	.
.	.	.	.	16B	.	16b	.
8GGJ	.	8GJ 8D	.	16A#y	.	16a#y	.
.	.	.	.	16BJ	.	16bJ	.
8GG	.	8G 8D	.	16A#yL	.	16a#yL	.
.	.	.	.	16B	.	16b	.
8r	.	8r	.	16d	.	16dd	.
.	.	.	.	16BJ)	.	16bJ)	.
=150	=150	=150	=150	=150	=150	=150	=150
8C	.	8r	.	(16BL	.	(16bL	.
.	.	.	.	16An	.	16an	.
8r	.	8g 8G	.	16G#	.	16g#	.
.	.	.	.	16AJ	.	16aJ	.
8D	.	8r	.	16cL	.	16ccL	.
.	.	.	.	16B	.	16b	.
8r	.	8g 8G	.	16A#	.	16a#	.
.	.	.	.	16BJ)	.	16bJ)	.
8E	.	8r	.	(16dL	.	(16ddL	.
.	.	.	.	16c	.	16cc	.
8r	.	8gL 8G	.	16B	.	16b	.
.	.	.	.	16cJ	.	16ccJ	.
4r	.	8g 8G	.	16BL	.	16bL	.
.	.	.	.	16c	.	16cc	.
.	.	8gJ 8G	.	16e	.	16ee	.
.	.	.	.	16cJ)	.	16ccJ)	.
=151	=151	=151	=151	=151	=151	=151	=151
8D	.	8r	.	(16cL	.	(16ccL	.
.	.	.	.	16B	.	16b	.
8r	.	8g 8G	.	16A#	.	16a#	.
.	.	.	.	16BJ	.	16bJ	.
8E	.	8r	.	16dL	.	16ddL	.
.	.	.	.	16c	.	16cc	.
8r	.	8g 8G	.	16B	.	16b	.
.	.	.	.	16cJ)	.	16ccJ)	.
8Fn	.	8r	.	(16eL	.	(16eeL	.
.	.	.	.	16d	.	16dd	.
8r	.	8gL 8G	.	16c#	.	16cc#	.
.	.	.	.	16dJ	.	16ddJ	.
4r	.	8g 8G	.	16c#yL	.	16cc#yL	.
.	.	.	.	16d	.	16dd	.
.	.	8gJ 8G	.	16fn	.	16ffn	.
.	.	.	.	16dJ)	.	16ddJ)	.
!!LO:LB
=152	=152	=152	=152	=152	=152	=152	=152
8E	.	8r	.	(16dL	.	(16ddL	.
.	.	.	.	16c	.	16cc	.
8r	.	8g 8G	.	16B	.	16b	.
.	.	.	.	16cJ	.	16ccJ	.
8BB	.	8r	.	16eL	.	16eeL	.
.	.	.	.	16d	.	16dd	.
8r	.	8g 8G	.	16c#	.	16cc#	.
.	.	.	.	16dJ)	.	16ddJ)	.
8C	.	8r	.	(16fnL	.	(16ffnL	.
.	.	.	.	16e	.	16ee	.
8r	.	8gL 8G	.	16d#	.	16dd#	.
.	.	.	.	16eJ	.	16eeJ	.
4r	.	8g 8G	.	16d#yL	.	16dd#yL	.
.	.	.	.	16e	.	16ee	.
.	.	8gJ 8G	.	16g	.	16gg	.
.	.	.	.	16eJ)	.	16eeJ)	.
=153	=153	=153	=153	=153	=153	=153	=153
8A	.	8r	.	(16gL	.	(16ggL	.
.	.	.	.	16f#	.	16ff#	.
8r	.	8dL 8c	.	16e#	.	16ee#	.
.	.	.	.	16f#yJ	.	16ff#yJ	.
4r	.	8d 8c	.	16e#yL	.	16ee#yL	.
.	.	.	.	16f#y	.	16ff#y	.
.	.	8dJ 8A	.	16cc	.	16aa	.
.	.	.	.	16aJ)	.	16ff#yJ)	.
2r	.	(16GL	.	2b	.	(2gg	.
.	.	16A	.	.	.	.	.
.	.	16B	.	.	.	.	.
.	.	16cJ	.	.	.	.	.
.	.	16dL	.	.	.	.	.
.	.	16e	.	.	.	.	.
.	.	16f#y	.	.	.	.	.
.	.	16gJ)	.	.	.	.	.
=154	=154	=154	=154	=154	=154	=154	=154
*	*	*	*	*^	*	*	*
1r	.	(16fnL	cresc.	1gg	(2dd	cresc.	2bb	cresc.
.	.	16e	.	.	.	.	.	.
.	.	16d	.	.	.	.	.	.
.	.	16cJ	.	.	.	.	.	.
.	.	16BL	.	.	.	.	.	.
.	.	16A	.	.	.	.	.	.
.	.	16G	.	.	.	.	.	.
.	.	16FnJ)	.	.	.	.	.	.
.	.	(16EL	.	.	2ee)	.	2ccc)	.
.	.	16F	.	.	.	.	.	.
.	.	16G	.	.	.	.	.	.
.	.	16AJ	.	.	.	.	.	.
.	.	16BL	.	.	.	.	.	.
.	.	16c	.	.	.	.	.	.
.	.	16d	.	.	.	.	.	.
.	.	16eJ)	.	.	.	.	.	.
*	*	*	*	*v	*v	*	*	*
!!LO:LB
=155	=155	=155	=155	=155	=155	=155	=155
2r	.	8dL	.	8.ggL	.	8.bbL	.
.	.	8d	.	.	.	.	.
.	.	.	.	16bbJ	.	16dddJ	.
.	.	.	.	(<16qbb	.	.	.
.	.	.	.	.	.	(<16qddd	.
.	.	8d	.	8aaL)	.	8cccL)	.
.	.	8dJ	.	16gg	.	16bb	.
.	.	.	.	16ff#yJ	.	16aaJ	.
(16GL	.	2d 2B	.	2gg	.	(2gg	.
16A	.	.	.	.	.	.	.
16B	.	.	.	.	.	.	.
16cJ	.	.	.	.	.	.	.
16dL	.	.	.	.	.	.	.
16e	.	.	.	.	.	.	.
16f#y	.	.	.	.	.	.	.
16gJ)	.	.	.	.	.	.	.
=156	=156	=156	=156	=156	=156	=156	=156
*	*	*	*	*^	*	*	*
(16fnL	cre	2r	crescendo	(2d	1G	cre	2b	cre
16e	.	.	.	.	.	.	.	.
16d	.	.	.	.	.	.	.	.
16cJ	.	.	.	.	.	.	.	.
16BL	.	.	.	.	.	.	.	.
16A	.	.	.	.	.	.	.	.
16G	.	.	.	.	.	.	.	.
16FnJ)	.	.	.	.	.	.	.	.
(16EL	.	(16GL	.	2e)	.	.	2cc)	.
16F	.	16A	.	.	.	.	.	.
16G	.	16B	.	.	.	.	.	.
16AJ	.	16cJ	.	.	.	.	.	.
16BL	.	16dL	.	.	.	.	.	.
16c	.	16e	.	.	.	.	.	.
16d	.	16fn	.	.	.	.	.	.
16eJ)	.	16gJ)	.	.	.	.	.	.
=157	=157	=157	=157	=157	=157	=157	=157	=157
(16dL	do	(16fnL	.	(2b	1g	scen	(2dd	scen
16c	.	16e	.	.	.	.	.	.
16B	.	16d	.	.	.	.	.	.
16AJ	.	16cJ	.	.	.	.	.	.
16GL	.	16BL	.	.	.	.	.	.
16Fn	.	16A	.	.	.	.	.	.
16E	.	16G	.	.	.	.	.	.
16DJ)	.	16FJ)	.	.	.	.	.	.
(16CL	.	(16EL	.	2cc)	.	.	2ee)	.
16D	.	16F	.	.	.	.	.	.
16E	.	16G	.	.	.	.	.	.
16FJ	.	16AJ	.	.	.	.	.	.
16GL	.	16BL	.	.	.	.	.	.
16A	.	16c	.	.	.	.	.	.
16B	.	16d	.	.	.	.	.	.
16cJ)	.	16eJ)	.	.	.	.	.	.
*	*	*	*	*v	*v	*	*	*
!!LO:LB
=158	=158	=158	=158	=158	=158	=158	=158
8B	.	8g	.	(16ddL	.	(16ffnL	.
.	.	.	.	16cc	.	16ee	.
8r	.	8r	.	16b	.	16dd	.
.	.	.	.	16aJ	.	16ccJ	.
4r	.	4r	.	16gL	.	16bL	.
.	.	.	.	16f	.	16a	.
.	.	.	.	16e	.	16g	.
.	.	.	.	16dJ	.	16fJ	.
(16cL	.	(16eL	.	8c)	.	8e)	.
16B	.	16d	.	.	.	.	.
16A	.	16c	.	8r	.	8r	.
16GJ	.	16BJ	.	.	.	.	.
16FnL	.	16AL	.	4r	.	4r	.
16E	.	16G	.	.	.	.	.
16D	.	16Fn	.	.	.	.	.
16CJ)	.	16EJ)	.	.	.	.	.
=159	=159	=159	=159	=159	=159	=159	=159
2D	.	(16AL	.	(16cL	.	(16f#L	.
.	.	16B	.	16d	.	16g	.
.	.	16c	.	16e	.	16a	.
.	.	16dJ	.	16f#J	.	16bJ	.
.	.	16eL	.	16gL	.	16ccL	.
.	.	16f#	.	16a	.	16dd	.
.	.	16g	.	16b	.	16ee	.
.	.	16aJ	.	16ccJ	.	16ff#J	.
(16EL	.	8g)	.	8b)	.	8gg)	.
16F#	.	.	.	.	.	.	.
16G	.	8r	.	8r	.	8r	.
16AJ	.	.	.	.	.	.	.
16BL	.	4r	.	4r	.	4r	.
16c#	.	.	.	.	.	.	.
16d#	.	.	.	.	.	.	.
16eJ)	.	.	.	.	.	.	.
=160	=160	=160	=160	=160	=160	=160	=160
(2A	.	(16eL	.	(16gL	.	(16cc#L	.
.	.	16f#y	.	16a	.	16dd	.
.	.	16g	.	16b	.	16ee	.
.	.	16aJ	.	16cc#J	.	16ff#yJ	.
.	.	16bL	.	16ddL	.	16ggL	.
.	.	16cc#	.	16ee	.	16aa	.
.	.	16dd	.	16ff#y	.	16bb	.
.	.	16eeJ	.	16ggJ	.	16ccc#J	.
8D)	.	8dd)	.	8ff#y)	.	8ddd)	.
8r	.	8r	.	8r	.	8r	.
8F#y	.	8dd	.	8aa	.	8cccn	.
8r	.	8r	.	8r	.	8r	.
=161	=161	=161	=161	=161	=161	=161	=161
8G	.	8dd	.	8gg	.	8bb	.
8r	.	8r	.	8r	.	8r	.
8c	.	8ccn	.	8ee	.	8aa	.
8r	.	8r	.	8r	.	8r	.
8d	.	8b	.	8dd	.	8gg	.
8r	.	8r	.	8r	.	8r	.
8d#	.	8a	.	8ccn	.	8ff#y	.
8r	.	8r	.	8r	.	8r	.
=162	=162	=162	=162	=162	=162	=162	=162
8e	.	8g	.	8b	.	(16aaL	.
.	.	.	.	.	.	16ggJ)	.
8r	.	8r	.	8r	.	8r	.
8F#y	.	8a	.	8cc	.	(16ff#yL	.
.	.	.	.	.	.	16eeJ)	.
8r	.	8r	.	8r	.	8r	.
8G	.	8d	.	8b	.	(16cc#L	.
.	.	.	.	.	.	16ddJ)	.
8r	.	8r	.	8r	.	8r	.
8C	.	8e	.	8a	.	(16ddL	.
.	.	.	.	.	.	16ccnJ)	.
8r	.	8r	.	8r	.	8r	.
=163	=163	=163	=163	=163	=163	=163	=163
8D	.	8d	.	8g	.	(16ccL	.
.	.	.	.	.	.	16bJ)	.
8r	.	8r	.	8r	.	8r	.
8D	.	8c	.	8f#y	.	(16bL	.
.	.	.	.	.	.	16aJ)	.
8r	.	8r	.	8r	.	8r	.
8GG	.	8B	.	8g	.	8g	.
8r	.	8r	.	8r	.	8r	.
[4E	.	[4G	.	[4B-	.	[4cc#	.
=164	=164	=164	=164	=164	=164	=164	=164
4E_	.	4G_	.	4B-y_	.	4cc#y_	.
.	.	.	.	.	.	(<16qee	.
2D	.	4.G	.	4.Bn	.	4.dd)	.
.	.	8G'L	.	8B'L	.	16ccnL	.
.	.	.	.	.	.	16bJ	.
.	.	.	.	.	.	(<16qb	.
4DD	.	8A'	.	8c'	.	8aL)	.
.	.	8A'J	.	8c'J	.	16g	.
.	.	.	.	.	.	16f#yJ	.
=165	=165	=165	=165	=165	=165	=165	=165
8GG	.	8G	.	8B	.	8g	.
8r	.	8r	.	8r	.	8r	.
2e	.	2g	.	2b-	.	2ccc#	.
.	.	.	.	.	.	(<16qeee	.
[4d	.	[4g	.	[4bn	.	4ddd)	.
!!LO:LB
=166	=166	=166	=166	=166	=166	=166	=166
4d]	.	8gL]	.	8bL]	.	8dddL]	.
.	.	8g'	.	8b'	.	16cccn	.
.	.	.	.	.	.	16bbJ	.
.	.	.	.	.	.	(<16qbb	.
4D	.	8a'	.	8cc'	.	8aaL)	.
.	.	8a'J	.	8cc'J	.	16gg	.
.	.	.	.	.	.	16ff#yJ	.
8G	.	8g	.	8b	.	8gg	.
8r	.	8r	.	8r	.	8r	.
4r	.	8D'L	.	8c'L	.	(16aL	.
.	.	.	.	.	.	16cc	.
.	.	8D'J	.	8c'J	.	16b	.
.	.	.	.	.	.	16aJ)	.
=167	=167	=167	=167	=167	=167	=167	=167
4r	.	8G	.	8B	.	8g	.
.	.	8r	.	8r	.	8r	.
8D'L	.	8c'L	.	(16aL	.	8ff#y'L	.
.	.	.	.	16cc	.	.	.
8D'J	.	8c'J	.	16b	.	8ff#y'J	.
.	.	.	.	16aJ)	.	.	.
8G	.	8B	.	8g	.	8gg	.
8r	.	8r	.	8r	.	8r	.
4r	.	8DL	.	8c'L	.	(16aL	.
.	.	.	.	.	.	16cc	.
.	.	8DJ	.	8c'J	.	16b	.
.	.	.	.	.	.	16aJ)	.
=168	=168	=168	=168	=168	=168	=168	=168
4r	.	8G	.	8B	.	8g	.
.	.	8r	.	8r	.	8r	.
8d'L	.	(16aL	.	8ff#y'L	.	8ccc'L	.
.	.	16cc	.	.	.	.	.
8d'J	.	16b	.	8ff#y'J	.	8ccc'J	.
.	.	16aJ)	.	.	.	.	.
8e	.	8g	.	8gg	.	8bb	.
8r	.	8r	.	8r	.	8r	.
4r	.	4r	.	4r	.	4r	.
=169	=169	=169	=169	=169	=169	=169	=169
8.CL	.	8.eL	.	8.gL	.	8.aL	.
16C	.	16e	.	16g	.	16a	.
8.C#	.	8.e	.	8.g	.	8.a	.
16C#yJ	.	16eJ	.	16gJ	.	16aJ	.
8.DL	.	8.dL	.	8.gL	.	8.bL	.
16D	.	16d	.	16g	.	16b	.
8.E	.	8.c	.	8.g	.	8.cc	.
16EJ	.	16cJ	.	16gJ	.	16ccJ	.
=170	=170	=170	=170	=170	=170	=170	=170
8D	.	8d	.	8g	.	8b	.
8r	.	8r	.	8r	.	8r	.
8D	.	8d 8c	.	(8.f#yLT	.	(8.aLT	.
8r	.	8r	.	.	.	.	.
.	.	.	.	32e	.	32g	.
.	.	.	.	32f#yJ)	.	32aJ)	.
4GG	.	4d 4B	.	4g	.	4g	.
8r	.	8r	.	8r	.	8r	.
=:|!	=:|!	=:|!	=:|!	=:|!	=:|!	=:|!	=:|!
*-	*-	*-	*-	*-	*-	*-	*-
!!!RDF**kern: < = below
